!!!!SEGMENT: pl-sa--l-1643--008_anonim--o-sanctissima-anima-virginis-scholasticae.krn
!!!cenid: 16xx:1363
!!!COM: Anonim
!!!COM-rismID: pe30004985
!!!CDT:
!!!CNT:
!!!OTL: O sanctissima anima Virginis Scholasticae
!!!PDT:
!!!AGN: Sacred
!!!SMS-siglum: PL-SA
!!!SMS-shelfmark: L 1643
!!!SMS-shelfwork: 008 W
!!!SMS-variant:
!!!SMS-altvar:
!!!NIFC-rismSourceID: 1001064632
!!!NIFC-islandoraID:
!!!URL-pdf-islandora:
!!!URL-scan:
!!!ONB-nifc: UWAGA: 8 ksiąg. Primi chori: 1mus Cantus (s. 30-32), C 2dus (s. 28-30), C 3tius (brak), Bassus (s. 26-28); Secondi chori: Primus Cantus (s. 28-30), C 2dus (s. 28-30), Altus (s. 28-30), Bassus (s. 28-30). UWAGA: metrum 2/2 i 3/2
!!!AIN: 8 empty
!!!key:
**kern	**text	**kern	**text	**kern	**text	**kern	**text	**kern	**text	**kern	**kern	**text	**kern	**text
*part8	*part8	*part7	*part7	*part6	*part6	*part5	*part5	*part4	*part4	*part3	*part2	*part2	*part1	*part1
*staff8	*staff8	*staff7	*staff7	*staff6	*staff6	*staff5	*staff5	*staff4	*staff4	*staff3	*staff2	*staff2	*staff1	*staff1
*Iempty	*	*Iempty	*	*Iempty	*	*Iempty	*	*Iempty	*	*Iempty	*Iempty	*	*Iempty	*
*I"Baſsus 2di Chori.	*	*I"Altus secundi Chori.	*	*I"Cantus 2dus Secundi Chori.	*	*I"Primus Cantus 2di Chori	*	*I"Bassus Primi Chori.	*	*I"Cantus 3tius Primi Chori	*I"Cantus 2dus Primi Chori.	*	*I"Im(us) Cantus Primi Chori	*
*I'Coro 2 B	*	*I'Coro 2 A	*	*I'Coro 2 S 2	*	*I'Coro 2 S 1	*	*I'Coro 1 B	*	*I'Coro 1 S 3	*I'Coro 1 S 2	*	*I'Coro 1 S 1	*
*clefC3	*	*clefC2	*	*clefC1	*	*clefG2	*	*clefC3	*	*clefC2	*clefC1	*	*clefG2	*
*k[]	*	*k[]	*	*k[]	*	*k[]	*	*k[]	*	*k[]	*k[]	*	*k[]	*
*d:	*	*d:	*	*d:	*	*d:	*	*d:	*	*d:	*d:	*	*d:	*
*M2/1	*	*M2/1	*	*M2/1	*	*M2/1	*	*M2/1	*	*M2/1	*M2/1	*	*M2/1	*
*met(c|)	*	*met(c|)	*	*met(c|)	*	*met(c|)	*	*met(c|)	*	*met(c|)	*met(c|)	*	*met(c|)	*
=1	=1	=1	=1	=1	=1	=1	=1	=1	=1	=1	=1	=1	=1	=1
00r	.	00r	.	00r	.	00r	.	1d\	O	1ryy	1a\	O	1dd\	O
.	.	.	.	.	.	.	.	2A/	San-	1ryy	2cc\	San-	2cc\	San-
.	.	.	.	.	.	.	.	2.B-X/	-ctiſ-	.	2.b-X\	-ctiſ-	2.dd\	-ctiſ-
=2-	=2-	=2-	=2-	=2-	=2-	=2-	=2-	=2-	=2-	=2-	=2-	=2-	=2-	=2-
.	.	.	.	.	.	.	.	.	.	1ryy	.	.	.	.
.	.	.	.	.	.	.	.	4B-X/	-si-	.	4b-y\	-si-	4dd\	-si-
.	.	.	.	.	.	.	.	2F/	-ma	.	2a\	-ma	2cc\	-ma
.	.	.	.	.	.	.	.	2.G/	a-	1ryy	4g/	a-	4b-X/	a-
.	.	.	.	.	.	.	.	.	.	.	4a/	.	4cc\	.
.	.	.	.	.	.	.	.	.	.	.	1b-X\	.	1dd\	.
.	.	.	.	.	.	.	.	4F/	.	.	.	.	.	.
=3-	=3-	=3-	=3-	=3-	=3-	=3-	=3-	=3-	=3-	=3-	=3-	=3-	=3-	=3-
00r	.	00r	.	00r	.	00r	.	4G/	.	1ryy	.	.	.	.
.	.	.	.	.	.	.	.	4A/	.	.	.	.	.	.
.	.	.	.	.	.	.	.	4B-X/	.	.	2b-y\	ni-	2dd\	ni-
.	.	.	.	.	.	.	.	4c/	.	.	.	.	.	.
.	.	.	.	.	.	.	.	2.d\	.	1ryy	0a\	-ma	0dd\	-ma
.	.	.	.	.	.	.	.	4d\	ni-	.	.	.	.	.
=4-	=4-	=4-	=4-	=4-	=4-	=4-	=4-	=4-	=4-	=4-	=4-	=4-	=4-	=4-
.	.	.	.	.	.	.	.	1d\	-ma	1ryy	.	.	.	.
.	.	.	.	.	.	.	.	2.g\	Vir-	1ryy	2.b\	Vir-	2.dd\	Vir-
.	.	.	.	.	.	.	.	4f\	-gi-	.	4b\	-gi-	4dd\	-gi-
=5-	=5-	=5-	=5-	=5-	=5-	=5-	=5-	=5-	=5-	=5-	=5-	=5-	=5-	=5-
0r	.	0r	.	0r	.	0r	.	2e\	-nis	1ryy	2cc\	-nis	2ee\	-nis
.	.	.	.	.	.	.	.	1f\	Scho-	.	4a\	Scho-	1cc\	Scho-
.	.	.	.	.	.	.	.	.	.	.	4g/	.	.	.
.	.	.	.	.	.	.	.	.	.	1ryy	2a\	.	.	.
.	.	.	.	.	.	.	.	2d\	la-	.	2cc\	-la-	2ff\	-las-
=6-	=6-	=6-	=6-	=6-	=6-	=6-	=6-	=6-	=6-	=6-	=6-	=6-	=6-	=6-
1r	.	1r	.	1r	.	1r	.	1A/	-ſti-	1ryy	(2dd\	-sti-	1ee\	-ti-
.	.	.	.	.	.	.	.	.	.	.	2cc#X\)	.	.	.
*	*	*	*	*	*	*	*	*	*	*	*custos:a	*	*	*
1d\	O	1f\	O	1a\	O	1dd\	O	1d\	-cae	1ryy	1dd\	-cae	1dd\	-cae
=7-	=7-	=7-	=7-	=7-	=7-	=7-	=7-	=7-	=7-	=7-	=7-	=7-	=7-	=7-
!	!	!	!	!	!	!	!	!	!	!	!LO:LB:g=original	!	!	!
2A/	San-	2e/	san-	2a\	San-	2cc\	San-	00r	.	1ryy	00r	.	00r	.
2.A/	-ctiſ-	2.a\	-ctis-	2.cc\	-ctiſ-	2.ee\	-ctiſ-	.	.	.	.	.	.	.
.	.	.	.	.	.	.	.	.	.	1ryy	.	.	.	.
4A/	-si-	4a\	-si-	4cc\	-si-	4ee\	-si-	.	.	.	.	.	.	.
2A/	-ma	2a\	-ma	2cc\	-ma	2ee\	-ma	.	.	.	.	.	.	.
=8-	=8-	=8-	=8-	=8-	=8-	=8-	=8-	=8-	=8-	=8-	=8-	=8-	=8-	=8-
2.e\	a-	2.g#X\	a-	2.b\	a-	2.ee\	a-	.	.	1ryy	.	.	.	.
4e\	-ni-	4g#\	-ni-	4b\	-ni-	4ee\	-ni-	.	.	.	.	.	.	.
1A/	-ma	1a\,<	-ma	1a\	-ma	1cc#X\	-ma	.	.	1ryy	.	.	.	.
=9-	=9-	=9-	=9-	=9-	=9-	=9-	=9-	=9-	=9-	=9-	=9-	=9-	=9-	=9-
2.d\	Vir-	2.f\	Vir-	2.a\	Vir-	2.dd\	Vir-	0r	.	1ryy	0r	.	0r	.
4d\	-gi-	4f\	-gi-	4a\	-gi-	4dd\	-gi-	.	.	.	.	.	.	.
2c#X/	-nis	2a\	-nis	2.a\	-nis	2ee\	-nis	.	.	1ryy	.	.	.	.
2d\	Scho-	2a\	Scho-	.	.	2ff\	Scho-	.	.	.	.	.	.	.
.	.	.	.	4dd\	Scho-	.	.	.	.	.	.	.	.	.
=10-	=10-	=10-	=10-	=10-	=10-	=10-	=10-	=10-	=10-	=10-	=10-	=10-	=10-	=10-
*	*	*	*	*	*	*	*	*custos:d	*	*	*	*	*	*
2.A/	-laſ-	2.a\	-laſ-	2dd\	-laſ-	2ee\	-laſ-	1r	.	1ryy	1r	.	1r	.
.	.	.	.	2cc#X\	-ti-	2ee\	-ti-	.	.	.	.	.	.	.
4A/	-ti-	4a\	-ti-	.	.	.	.	.	.	.	.	.	.	.
!	!	!	!	!	!	!	!	!LO:LB:g=original	!	!	!	!	!	!
1d\	-cae	1f\	-cae	1dd\	-cae	1dd\	-cae	2.d\	Vir-	1ryy	2.a\	Vir-	2.dd\	Vir-
*	*	*	*	*	*	*	*	*	*	*	*	*	*custos:ee	*
.	.	.	.	.	.	.	.	4d\	-gi-	.	4b\	-gi-	4dd\	-gi-
=11-	=11-	=11-	=11-	=11-	=11-	=11-	=11-	=11-	=11-	=11-	=11-	=11-	=11-	=11-
!	!	!	!	!	!	!	!	!	!	!	!	!	!LO:LB:g=original	!
0r	.	0r	.	0r	.	0r	.	2c/	-nis	1ryy	2cc\	-nis	2ee\	-nis
.	.	.	.	.	.	.	.	2A/	scho-	.	2cc\	scho-	2ff\	Scho-
.	.	.	.	.	.	.	.	2.G/	-las-	1ryy	2ff\	-las-	2.gg\	-laſ-
.	.	.	.	.	.	.	.	.	.	.	2ee\	-ti-	.	.
.	.	.	.	.	.	.	.	4G/	-ti-	.	.	.	4gg\	-ti-
=12-	=12-	=12-	=12-	=12-	=12-	=12-	=12-	=12-	=12-	=12-	=12-	=12-	=12-	=12-
4f\	quae	4a\	quae	4ccny\	quae	4ff\	quae	1F/	-cae	1ryy	1ff\	-cae	1cc\	-cae
*	*	*custos:a	*	*custos:cc	*	*	*	*	*	*	*	*	*	*
4f\	ad	4a\	ad	4cc\	ad	4ff\	ad	.	.	.	.	.	.	.
!	!	!LO:LB:g=original	!	!LO:LB:g=original	!	!	!	!	!	!	!	!	!	!
4f\	os-	4a\	os-	4cc\	oſ-	4ff\	oſ-	.	.	.	.	.	.	.
*custos:c	*	*	*	*	*	*	*	*	*	*	*	*	*	*
4f\	-ten-	4a\	-ten-	4cc\	-ten-	4ff\	-ten-	.	.	.	.	.	.	.
*	*	*	*	*	*	*custos:ee	*	*	*	*	*	*	*	*
!LO:LB:g=original	!	!	!	!	!	!	!	!	!	!	!	!	!	!
2cny/	-(den)-	2gny\	-den-	2cc\	-den-	2ee\	-den-	00r	.	1ryy	00r	.	00r	.
!	!	!	!	!	!	!LO:LB:g=original	!	!	!	!	!	!	!	!
2c,</	-dam	2g\	-dam	2cc\	-dam	2ee\	-dam	.	.	.	.	.	.	.
=13-	=13-	=13-	=13-	=13-	=13-	=13-	=13-	=13-	=13-	=13-	=13-	=13-	=13-	=13-
2f\	Vi-	2a\	Vi-	2cc\	Vi-	2ff\	Vi-	.	.	1ryy	.	.	.	.
2c/	-tae	2g\	-tae	2cc\	-tae	2ee\	-tae	.	.	.	.	.	.	.
1g\	ſu-	1g\	ſu-	(2cc\	su-	1dd\	ſu-	.	.	1ryy	.	.	.	.
.	.	.	.	2b\)	.	.	.	.	.	.	.	.	.	.
=14-	=14-	=14-	=14-	=14-	=14-	=14-	=14-	=14-	=14-	=14-	=14-	=14-	=14-	=14-
2c,</	-ae	2g\	-ae	2cc,<\	-ae	2ee\	-ae	.	.	1ryy	.	.	.	.
4f\	in-	4a\	in-	4cc\	in-	4ff\	in-	.	.	.	.	.	.	.
4f\	-no-	4a\	-no-	4cc\	-no-	4ff\	-no-	.	.	.	.	.	.	.
4.d\	-cen-	4.b-X\	-cen-	4.dd\	-cen-	4.ff\	-cen-	00r	.	1ryy	00r	.	00r	.
8e\	-ti-	8b-\	-ti-	8dd\	-ti-	8ff\	-ti-	.	.	.	.	.	.	.
2f\	-am	2a\	-am	2cc,<\	-am	2ff,<\	-am	.	.	.	.	.	.	.
=15-	=15-	=15-	=15-	=15-	=15-	=15-	=15-	=15-	=15-	=15-	=15-	=15-	=15-	=15-
2B-X/	in	2f\	in	2b-X\	in	2dd\	in	.	.	1ryy	.	.	.	.
2B-/	co-	2g\	co-	2b-\	co-	2dd\	co-	.	.	.	.	.	.	.
2c/	-lum-	2g\	-lum-	2g/	-lum-	2ee\	-lum-	.	.	1ryy	.	.	.	.
2A/	-bae	2a\	-bae	2cc\	-bae	2ff\	-bae	.	.	.	.	.	.	.
=16-	=16-	=16-	=16-	=16-	=16-	=16-	=16-	=16-	=16-	=16-	=16-	=16-	=16-	=16-
2.B-X/	spe-	2a\	spe-	2.dd\	spe-	2.dd\	spe-	.	.	1ryy	.	.	.	.
.	.	2g\	-ci-	.	.	.	.	.	.	.	.	.	.	.
4B-/	-ci-	.	.	4dd\	-ci-	4dd\	-ci-	.	.	.	.	.	.	.
*	*	*	*	*custos:a	*	*	*	*	*	*	*	*	*	*
2A/	-e	2e/	-e	2ee\	-e	2cc#X\	-e	00r	.	1ryy	00r	.	00r	.
!	!	!	!	!LO:LB:g=original	!	!	!	!	!	!	!	!	!	!
1d\	cae-	1f#X\	cae-	1a\	cae-	1dd\	cae-	.	.	.	.	.	.	.
=17-	=17-	=17-	=17-	=17-	=17-	=17-	=17-	=17-	=17-	=17-	=17-	=17-	=17-	=17-
.	.	.	.	.	.	.	.	.	.	1ryy	.	.	.	.
2G/	-lum	2g\	-lum	2bny\	-lum	2dd,<\	-lum	.	.	.	.	.	.	.
2.c/	pe-	2.g\	pe-	2.cc\	per-	4.ee\	pe-	.	.	1ryy	.	.	.	.
.	.	.	.	.	.	8ee\	-ne-	.	.	.	.	.	.	.
.	.	.	.	.	.	4ee\	-tra-	.	.	.	.	.	.	.
*custos:A	*	*	*	*	*	*	*	*	*	*	*	*	*	*
4Bny/	-ne-	4g\	-ne-	4dd\	-tran-	4dd\	-vit	.	.	.	.	.	.	.
=18-	=18-	=18-	=18-	=18-	=18-	=18-	=18-	=18-	=18-	=18-	=18-	=18-	=18-	=18-
*	*	*custos:a	*	*	*	*	*	*	*	*	*	*	*	*
!LO:LB:g=original	!	!	!	!	!	!	!	!	!	!	!	!	!	!
2A/	-tra-	2a\	-tra-	2cc\	-si-	2r	.	.	.	1ryy	.	.	.	.
!	!	!LO:LB:g=original	!	!	!	!	!	!	!	!	!	!	!	!
2F/	-vit	2a\	-vit	2dd\	-vit	4.ff\	pe-	.	.	.	.	.	.	.
*	*	*	*	*	*	*custos:dd	*	*	*	*	*	*	*	*
.	.	.	.	.	.	8ee\	-ne-	.	.	.	.	.	.	.
!	!	!	!	!	!	!LO:LB:g=original	!	!	!	!	!	!	!	!
1.G/	sae-	1.g\	sae-	2b\	sae-	2dd\	-tra-	0r	.	1ryy	0r	.	0r	.
.	.	.	.	1cc\	.	2ee\	-vit	.	.	.	.	.	.	.
=19-	=19-	=19-	=19-	=19-	=19-	=19-	=19-	=19-	=19-	=19-	=19-	=19-	=19-	=19-
.	.	.	.	.	.	2.dd\	se-	.	.	1ryy	.	.	.	.
2G/	-cu-	2g\	-cu-	2b\	-cu-	.	.	.	.	.	.	.	.	.
.	.	.	.	.	.	4dd\	-cu-	.	.	.	.	.	.	.
1c\,<	-ra	1g\,<	-ra	1cc\,<	-ra	1ee\,<	-ra	4c/	quae	1ryy	4cc\	quae	4ee\	quae
.	.	.	.	.	.	.	.	4c/	ad	.	4cc\	ad	4ee\	ad
.	.	.	.	.	.	.	.	4c/	oſ-	.	4cc\	oſ-	4ee\	oſ-
.	.	.	.	.	.	.	.	4c/	-ten-	.	4cc\	-ten-	4ee\	-ten-
=20-	=20-	=20-	=20-	=20-	=20-	=20-	=20-	=20-	=20-	=20-	=20-	=20-	=20-	=20-
4f\	quae	4fny\	quae	4cc\	quae	4cc\	quae	2F/	-den-	1ryy	2cc\	-den-	2ff\	-den-
4f\	ad	4f\	ad	4cc\	ad	4cc\	ad	.	.	.	.	.	.	.
4f\	os-	4f\	os-	4cc\	os-	4cc\	oſ-	2F,</	-dam	.	2cc,<\	-dam	2ff,<\	-dam
4f\	-ten-	4f\	-ten-	4cc\	-ten-	4cc\	-ten-	.	.	.	.	.	.	.
*	*	*	*	*	*	*	*	*	*ij	*	*	*ij	*	*ij
2c/	-den-	2g\	-den-	2cc\	-den-	2cc\	-den-	4c/	quae	1ryy	4cc\	quae	4ee\	quae
.	.	.	.	.	.	.	.	4c/	ad	.	4cc\	ad	4ee\	ad
2cZ/	-dam	2g,<\	-dam	2cc\,<	-dam	2ee\,<	-dam	4c/	oſ-	.	4cc\	oſ-	4ee\	oſ-
.	.	.	.	.	.	.	.	4c/	-ten-	.	4cc\	-ten-	4ee\	-ten-
=21-	=21-	=21-	=21-	=21-	=21-	=21-	=21-	=21-	=21-	=21-	=21-	=21-	=21-	=21-
*	*ij	*	*ij	*	*	*	*ij	*	*	*	*	*	*	*
4g\	quae	4g\	quae	4b\	quae	4dd\	quae	2G/	-den-	1ryy	2dd\	-den-	2gg\	-den-
4g\	ad	4g\	ad	4b\	ad	4dd\	ad	.	.	.	.	.	.	.
4g\	os-	4g\	os-	4b\	oſ-	4dd\	oſ-	2G/	-dam	.	2b\	-dam	2dd\	-dam
*	*	*	*	*	*	*	*	*	*Xij	*	*	*Xij	*	*Xij
4g\	-ten-	4g\	-ten-	4b\	-ten-	4dd\	-ten-	.	.	.	.	.	.	.
2d\	-den-	2f\	-den-	2dd\	-den-	2dd\	-den-	4d\	quae	1ryy	4a\	quae	4dd\	quae
.	.	.	.	.	.	.	.	4d\	ad	.	4a\	ad	4dd\	ad
*	*	*	*	*custos:b	*	*	*	*	*	*	*	*	*	*
2d\	-dam	2f\	-dam	2a\	-dam	2dd\	-dam	4d\	oſ-	.	4a\	oſ-	4dd\	oſ-
*	*Xij	*	*Xij	*	*	*	*Xij	*	*	*	*	*	*	*
.	.	.	.	.	.	.	.	4d\	-ten-	.	4a\	-ten-	4dd\	-ten-
=22-	=22-	=22-	=22-	=22-	=22-	=22-	=22-	=22-	=22-	=22-	=22-	=22-	=22-	=22-
*	*	*	*	*	*	*	*	*	*	*	*custos:cc	*	*	*
!	!	!	!	!LO:LB:g=original	!	!	!	!	!	!	!	!	!	!
00r	.	00r	.	00r	.	00r	.	2A/	-den-	1ryy	2cc\	-den-	2ee\	-den-
*	*	*	*	*	*	*	*	*custos:c	*	*	*	*	*custos:ee	*
!	!	!	!	!	!	!	!	!	!	!LO:LB:g=original	!	!	!	!
.	.	.	.	.	.	.	.	2A/	-dam	.	2cc\	-dam	2ee\	-dam
!	!	!	!	!	!	!	!	!LO:LB:g=original	!	!	!	!	!LO:LB:g=original	!
.	.	.	.	.	.	.	.	2.c/	Vi-	1ryy	1cc\	Vi-	1.ee\	Vi-
.	.	.	.	.	.	.	.	4d\	.	.	.	.	.	.
=23-	=23-	=23-	=23-	=23-	=23-	=23-	=23-	=23-	=23-	=23-	=23-	=23-	=23-	=23-
.	.	.	.	.	.	.	.	2e\	.	1ryy	2b\	.	.	.
.	.	.	.	.	.	.	.	2A/	-tae	.	2cc\,<	-tae	2cc\	-tae
.	.	.	.	.	.	.	.	1e\	ſu-	1ryy	1b\	ſu-	1ee\	ſu-
=24-	=24-	=24-	=24-	=24-	=24-	=24-	=24-	=24-	=24-	=24-	=24-	=24-	=24-	=24-
1r	.	1r	.	1r	.	1r	.	2A/	-ae	1ryy	2cc#X\	-ae	2cc#X\	-ae
.	.	.	.	.	.	.	.	4d\	in-	.	4a\	in-	4dd\	in-
.	.	.	.	.	.	.	.	4d\	-no-	.	4a\	-no-	4dd\	-no-
4g\	in-	4g\	in-	4b\	in-	4dd\	in-	4.G/	-cen-	1ryy	4.b\	-cen-	4.dd\	-cen-
4g\	-no-	4g\	-no-	4b\	-no-	4dd\	-no-	.	.	.	.	.	.	.
.	.	.	.	.	.	.	.	8G/	-ti-	.	8b\	-ti-	8dd\	-ti-
4.c/	-cen-	4.g\	-cen-	4.g/	-cen-	4.cc\	-cen-	2c/	-am	.	2ccny\,<	-am	2ee\	-am
8c/	-ti-	8g\	-ti-	8g/	-ti-	8cc\	-ti-	.	.	.	.	.	.	.
=25-	=25-	=25-	=25-	=25-	=25-	=25-	=25-	=25-	=25-	=25-	=25-	=25-	=25-	=25-
*	*	*	*	*	*	*	*	*	*	*	*	*ij	*	*
*custos:c	*	*	*	*	*	*	*	*	*	*	*	*	*	*
2f\	-am	2f\	-am	2a\	-am	2cc,<\	-am	4F/	in-	1ryy	4a\	in-	4cc\	in-
.	.	.	.	.	.	.	.	4F/	-no-	.	4a\	-no-	4cc\	-no-
*	*ij	*	*	*	*	*	*	*	*	*	*	*	*	*
!LO:LB:g=original	!	!	!	!	!	!	!	!	!	!	!	!	!	!
4c/	in-	4e/	in-	4g/	in-	4cc\	in-	4.c/	-cen-	.	4.cc\	-cen-	4.ee\	-cen-
4c/	-no-	4e/	-no-	4g/	-no-	4cc\	-no-	.	.	.	.	.	.	.
.	.	.	.	.	.	.	.	8c/	-ti-	.	8cc\	-ti-	8ee\	-ti-
4.g\	-cen-	4.g\	-cen-	4.b\	-cen-	4.dd\	-cen-	2G/	-am	1ryy	2b\	-am	2dd\	-am
*	*	*	*	*	*	*	*	*	*	*	*	*Xij	*	*
8g\	-ti-	8g\	-ti-	8b\	-ti-	8dd\	-ti-	.	.	.	.	.	.	.
*	*	*custos:g	*	*	*	*custos:dd	*	*	*	*	*	*	*	*
2c/	-am	2a\	-am	2dd\	-am	2ff\	-am	2r	.	.	2r	.	2r	.
*	*Xij	*	*	*	*	*	*	*	*	*	*	*	*	*
=26-	=26-	=26-	=26-	=26-	=26-	=26-	=26-	=26-	=26-	=26-	=26-	=26-	=26-	=26-
!	!	!LO:LB:g=original	!	!	!	!LO:LB:g=original	!	!	!	!	!	!	!	!
00r	.	00r	.	00r	.	00r	.	4A/	in-	1ryy	4a\	in-	4cc\	in-
.	.	.	.	.	.	.	.	4B/	-co-	.	4b\	-co-	4dd\	-co-
.	.	.	.	.	.	.	.	1c\	-lum-	.	1cc\	-lum-	1ee\	-lum-
.	.	.	.	.	.	.	.	.	.	1ryy	.	.	.	.
.	.	.	.	.	.	.	.	2A/	-bae	.	2cc\	-bae	2ff\	-bae
=27-	=27-	=27-	=27-	=27-	=27-	=27-	=27-	=27-	=27-	=27-	=27-	=27-	=27-	=27-
.	.	.	.	.	.	.	.	2.B-X/	spe-	1ryy	2.b-X\	spe-	2.dd\	spe-
.	.	.	.	.	.	.	.	4B-/	-ci-	.	4b-\	-ci-	4dd\	-ci-
.	.	.	.	.	.	.	.	2G/	-e	1ryy	2b-X\	-e	2ee\	-e
*	*	*	*	*	*	*	*	*	*	*	*custos:a	*	*custos:dd	*
.	.	.	.	.	.	.	.	1A/	cae-	.	1a\	cae-	1cc\	cae-
=28-	=28-	=28-	=28-	=28-	=28-	=28-	=28-	=28-	=28-	=28-	=28-	=28-	=28-	=28-
00r	.	00r	.	00r	.	00r	.	.	.	1ryy	.	.	.	.
*	*	*	*	*	*	*	*	*custos:G	*	*	*	*	*	*
!	!	!	!	!	!	!	!	!	!	!LO:LB:g=original	!	!LO:LB:g=original	!	!
.	.	.	.	.	.	.	.	2F/	-lum	.	2a\	-lum	2dd\	-lum
!	!	!	!	!	!	!	!	!LO:LB:g=original	!	!	!	!	!	!
.	.	.	.	.	.	.	.	2.G/	per-	1ryy	2.b\	per-	2.dd\	per-
.	.	.	.	.	.	.	.	4A/	-tran-	.	4cc\	-tran-	4cc\	-tran-
=29-	=29-	=29-	=29-	=29-	=29-	=29-	=29-	=29-	=29-	=29-	=29-	=29-	=29-	=29-
.	.	.	.	.	.	.	.	2B/	-si-	1ryy	2b\	-si-	2dd\	-si-
.	.	.	.	.	.	.	.	2c/	-vit	.	2g/	-vit	2ee\	-vit
.	.	.	.	.	.	.	.	2.A/	ſe-	1ryy	2.a\	se-	2.cc\	Sae-
.	.	.	.	.	.	.	.	4A/	-cu-	.	4a\	-cu-	4cc\	-cu-
=30-	=30-	=30-	=30-	=30-	=30-	=30-	=30-	=30-	=30-	=30-	=30-	=30-	=30-	=30-
2.G/	per-	2.g\	per-	2.b\	per-	2.dd\	per-	1G/	-ra	1ryy	1b\	-ra	1b\	-ra
4B/	-tran-	4g\	-tran-	4cc\	-tran-	4cc\	-tran-	.	.	.	.	.	.	.
2B/	-si-	2g\	-si-	2b\	-si-	2dd\	-si-	0r	.	1ryy	0r	.	0r	.
2c/	-vit	2e/	-vit	2a\	-vit	2ee\	-vit	.	.	.	.	.	.	.
=31-	=31-	=31-	=31-	=31-	=31-	=31-	=31-	=31-	=31-	=31-	=31-	=31-	=31-	=31-
2.d\	sae-	2.f#X\	sae-	2.a\	sae-	2.dd\	sae-	.	.	1ryy	.	.	.	.
4d\	-cu-	4f#\	-cu-	4a\	-cu-	4dd\	-cu-	.	.	.	.	.	.	.
*	*	*	*	*	*	*	*	*	*ij	*	*	*ij	*	*ij
1G/	-ra	1g\	-ra	1b\	-ra	1dd\	-ra	2.g\	per-	1ryy	2.b\	per-	2.dd\	per-
.	.	.	.	.	.	.	.	4f\	-tran-	.	4b\	-tran-	4dd\	-tran-
=32-	=32-	=32-	=32-	=32-	=32-	=32-	=32-	=32-	=32-	=32-	=32-	=32-	=32-	=32-
1r	.	1r	.	1r	.	1r	.	2e\	-si-	1ryy	2cc#X\	-si-	2ee\	-si-
.	.	.	.	.	.	.	.	2d\	-vit	.	2dd\	-vit	2ff\	-vit
2.a\	per-	2.a\	per-	2.a\	per-	2.ee\	per-	2.A/	ſe-	1ryy	2dd\	se-	2.ee\	Sae-
.	.	.	.	.	.	.	.	.	.	.	2cc#X\	-cu-	.	.
*	*	*	*	*custos:a	*	*	*	*	*	*	*	*	*	*
4g\	-tran-	4a\	-tran-	4a\	-tran-	4ee\	-tran-	4A/	-cu-	.	.	.	4ee\	-cu-
=33-	=33-	=33-	=33-	=33-	=33-	=33-	=33-	=33-	=33-	=33-	=33-	=33-	=33-	=33-
!	!	!	!	!LO:LB:g=original	!	!	!	!	!	!	!	!	!	!
2f\	-si-	2a\	-si-	2a\	-si-	2dd\	-si-	1d\	-ra	1ryy	1dd\,<	-ra	1dd\	-ra
*	*	*	*	*	*	*	*	*	*Xij	*	*	*Xij	*	*Xij
2d\	-vit	2a\	-vit	2a\	-vit	2a/	-vit	.	.	.	.	.	.	.
2.a\	saee-	2.a\	saee-	2.a\	saee-	2.a/	ſe-	2.A/	per-	1ryy	2.cc#X\	per-	2.ee\	per-
4a\	-cu-	4a\	-cu-	4a\	-cu-	4a/	-cu-	4A/	-tran-	.	4cc#\	-tran-	4ee\	-tran-
=34-	=34-	=34-	=34-	=34-	=34-	=34-	=34-	=34-	=34-	=34-	=34-	=34-	=34-	=34-
1d\,<	-ra	1a\	-ra	1a\	-ra	2a,</	-ra	2d\	-si-	1ryy	2dd\	-si-	2ff\	-si-
.	.	.	.	.	.	4a/	per-	2d\	-vit	.	2dd\	-vit	2ff\	-vit
.	.	.	.	.	.	4b/	.	.	.	.	.	.	.	.
*	*	*	*	*	*	*	*	*	*	*	*custos:dd	*	*	*
1.a\	sae-	1.a\	sae-	1.a\	ſae-	4cc#X\	.	1.A/	se-	1ryy	2cc#X\	se-	2ee\	sae-
.	.	.	.	.	.	4dd\	-tran-	.	.	.	.	.	.	.
*	*	*	*	*	*	*	*	*	*	*	*	*	*custos:ee	*
!	!	!	!	!	!	!	!	!	!	!	!LO:LB:g=original	!	!	!
.	.	.	.	.	.	4ee\	-si-	.	.	.	1dd\	.	2ff\	.
.	.	.	.	.	.	4a/	-vit	.	.	.	.	.	.	.
=35-	=35-	=35-	=35-	=35-	=35-	=35-	=35-	=35-	=35-	=35-	=35-	=35-	=35-	=35-
!	!	!	!	!	!	!	!	!	!	!	!	!	!LO:LB:g=original	!
.	.	.	.	.	.	2.a/	se-	.	.	1ryy	.	.	2.ee\	.
*custos:d	*	*	*	*	*	*	*	*	*	*	*	*	*	*
2a\	-cu-	2a\	-cu-	2a\	-cu-	.	.	2A/	cu-	.	2cc#X\	cu-	.	.
.	.	.	.	.	.	4a/	-cu-	.	.	.	.	.	4ee\	-cu-
*	*	*	*	*	*	*	*	*custos:A	*	*	*	*	*	*
!LO:LB:g=original	!	!	!	!	!	!	!	!	!	!	!	!	!	!
1d\	-ra	1f#X\	-ra	1a\	-ra	1a/	-ra	1d\	-ra	1ryy	1dd\,<	-ra	1dd\	-ra
=36-	=36-	=36-	=36-	=36-	=36-	=36-	=36-	=36-	=36-	=36-	=36-	=36-	=36-	=36-
!	!	!	!	!	!	!	!	!LO:LB:g=original	!	!	!	!	!	!
0r	.	0r	.	0r	.	0r	.	2.A/	quam	1ryy	2.ee\	quam	2.cc#X\	qua(m)
.	.	.	.	.	.	.	.	4B/	pre-	.	4ee\	pre-	4dd\	pre-
.	.	.	.	.	.	.	.	2c#X/	-ca-	1ryy	2ee\	-ca-	2ee\	-ca-
.	.	.	.	.	.	.	.	2d\	-mur	.	2dd\	-mur	2ff\	-mur
=37-	=37-	=37-	=37-	=37-	=37-	=37-	=37-	=37-	=37-	=37-	=37-	=37-	=37-	=37-
2.A/	quam	2.a\	quam	2.a\	quam	2.cc#X\	qua(m)	0r	.	1ryy	0r	.	0r	.
*	*	*	*	*	*	*custos:ee	*	*	*	*	*	*	*	*
4B/	pre-	4a\	pre-	4a\	pre-	4dd\	pre-	.	.	.	.	.	.	.
*	*	*custos:e	*	*	*	*	*	*	*	*	*	*	*	*
!	!	!	!	!	!LO:LB:g=original	!	!	!	!	!	!	!	!	!
2c#X/	-ca-	2a\	-ca-	2.a\	-ca-	2ee\	-ca-	.	.	1ryy	.	.	.	.
!	!	!LO:LB:g=original	!	!	!	!	!	!	!	!	!	!	!	!
2d\	-mur	2fny\	-mur	.	.	2ff\	-mur	.	.	.	.	.	.	.
.	.	.	.	4dd\	-mur	.	.	.	.	.	.	.	.	.
=38-	=38-	=38-	=38-	=38-	=38-	=38-	=38-	=38-	=38-	=38-	=38-	=38-	=38-	=38-
*	*	*	*	*	*	*	*	*	*	*	*	*	*	*ij
0r	.	0r	.	0r	.	0r	.	2.G/	quam	1ryy	2.dd\	quam	2.b/	qua(m)
.	.	.	.	.	.	.	.	4A/	pre-	.	4dd\	pre-	4cc\	pre-
.	.	.	.	.	.	.	.	2B/	-ca-	1ryy	2dd\	-ca-	2dd\	-ca-
.	.	.	.	.	.	.	.	2c/	-mur	.	2cc\	-mur	2ee\	-mur
*	*	*	*	*	*	*	*	*	*	*	*	*	*	*Xij
=39-	=39-	=39-	=39-	=39-	=39-	=39-	=39-	=39-	=39-	=39-	=39-	=39-	=39-	=39-
2.G/	quam	2.g\	quam	2.dd\	quam	2.b/	quam	00r	.	1ryy	00r	.	00r	.
4A/	pre-	4g\	pre-	4cc\	pre-	4cc\	pre-	.	.	.	.	.	.	.
2B/	-ca-	2g\	-ca-	2b\	-ca-	2dd\	-ca-	.	.	1ryy	.	.	.	.
!	!	!LO:TX:t=P:problem=dźwięk niewidoczny	!	!	!	!	!	!	!	!	!	!	!	!
2cny/	-mur	2g\	-mur	2g/	-mur	2ee\	-mur	.	.	.	.	.	.	.
=40-	=40-	=40-	=40-	=40-	=40-	=40-	=40-	=40-	=40-	=40-	=40-	=40-	=40-	=40-
2c/	Vt	2g\	Vt	2cc\	Vt	2ee\	Vt	.	.	1ryy	.	.	.	.
2c/	e-	2g\	e-	2cc\	e-	2ee\	e-	.	.	.	.	.	.	.
2c/	-ius	2g\	-ius	2cc\	-ius	2ee\	-ius	.	.	1ryy	.	.	.	.
2.f\	me-	2.a\	me-	2.cc\	me-	2.ff\	me-	.	.	.	.	.	.	.
=41-	=41-	=41-	=41-	=41-	=41-	=41-	=41-	=41-	=41-	=41-	=41-	=41-	=41-	=41-
.	.	.	.	.	.	.	.	00r	.	1ryy	00r	.	00r	.
*	*	*	*	*custos:dd	*	*	*	*	*	*	*	*	*	*
4f\	-ri-	4a\	-ri-	4cc\	-ri-	4ff\	-ri-	.	.	.	.	.	.	.
!	!	!	!	!LO:LB:g=original	!	!	!	!	!	!	!	!	!	!
2d\	-tis	2bny\	-tis	2dd\	-tis	2ff\	-tis	.	.	.	.	.	.	.
2.e\	poſ-	2.g\	poſ-	2.b\	poſ-	2.ee\	poſ-	.	.	1ryy	.	.	.	.
4e\	-si-	4g\	-si-	4b\	-si-	4ee\	-si-	.	.	.	.	.	.	.
=42-	=42-	=42-	=42-	=42-	=42-	=42-	=42-	=42-	=42-	=42-	=42-	=42-	=42-	=42-
2c/	-mus	2a\	-mus	2cc\	-mus	2ee,<\	-mus	.	.	1ryy	.	.	.	.
4A/	in-	4a\	in-	4ee\	in-	4cc\	in-	.	.	.	.	.	.	.
*custos:c	*	*	*	*	*	*	*	*	*	*	*	*	*	*
4B/	-no-	4a\	-no-	4dd\	-no-	4dd\	-no-	.	.	.	.	.	.	.
!LO:LB:g=original	!	!	!	!	!	!	!	!	!	!	!	!	!	!
2c/	-cen-	2g\	-cen-	2cc\	-cen-	2ee\	-cen-	.	.	1ryy	.	.	.	.
2G/	-ter	2g\	-ter	2b\	-ter	2dd\	-ter	.	.	.	.	.	.	.
=43-	=43-	=43-	=43-	=43-	=43-	=43-	=43-	=43-	=43-	=43-	=43-	=43-	=43-	=43-
2.d\	Vi-	2.f#X\	Vi-	2.a\	Vi-	2.dd\	Vi-	1r	.	1ryy	1r	.	1r	.
4d\	-ve-	4f#\	-ve-	4a\	-ve-	4dd\	-ve-	.	.	.	.	.	.	.
*	*	*	*	*	*	*	*	*	*ij	*	*	*ij	*	*
*	*	*custos:g	*	*	*	*	*	*	*	*	*	*	*	*
1G/	-re	1g\	-re	1b\	-re	1dd\	-re	2.G/	quam	1ryy	2.dd\	quam	2.gg\	quam
.	.	.	.	.	.	.	.	4A/	pre-	.	4cc\	pre-	4cc\	pre-
=44-	=44-	=44-	=44-	=44-	=44-	=44-	=44-	=44-	=44-	=44-	=44-	=44-	=44-	=44-
!	!	!LO:LB:g=original	!	!	!	!	!	!	!	!	!	!	!	!
1r	.	1r	.	1r	.	1r	.	2B/	-ca-	1ryy	2b\	-ca-	2dd\	-ca-
.	.	.	.	.	.	.	.	2c/	-mur	.	2g/	-mur	2ee\	-mur
*	*	*	*	*	*	*	*	*	*Xij	*	*	*Xij	*	*
2.G/	quam	2.g\	quam	2.b\	quam	2.dd\	qua(m)	1r	.	1ryy	1r	.	1r	.
4A/	pre-	4g\	pre-	4a\	pre-	4cc\	pre-	.	.	.	.	.	.	.
=45-	=45-	=45-	=45-	=45-	=45-	=45-	=45-	=45-	=45-	=45-	=45-	=45-	=45-	=45-
*	*	*	*	*	*	*custos:ee	*	*	*	*	*	*	*	*
2B/	-ca-	2g\	-ca-	2.g/	-ca-	2dd\	-ca-	2r	.	1ryy	2r	.	2r	.
!	!	!	!	!	!	!LO:LB:g=original	!	!	!	!	!	!	!	!
2c/	-mur	2g\	-mur	.	.	2ee\	-mur	2.A/	quam	.	2.cc\	quam	2.ee\	quam
.	.	.	.	4cc\	-mur	.	.	.	.	.	.	.	.	.
00r	.	00r	.	00r	.	00r	.	.	.	1ryy	.	.	.	.
.	.	.	.	.	.	.	.	4A/	pre-	.	4cc\	pre-	4ee\	pre-
.	.	.	.	.	.	.	.	2G/	-ca-	.	2b\	-ca-	2dd\	-ca-
=46-	=46-	=46-	=46-	=46-	=46-	=46-	=46-	=46-	=46-	=46-	=46-	=46-	=46-	=46-
.	.	.	.	.	.	.	.	2c/	-mur	1ryy	2cc\	-mur	2ee\	-mur
*	*	*	*	*	*	*	*	*	*	*	*	*	*custos:dd	*
.	.	.	.	.	.	.	.	2A/	Vt	.	2cc\	Vt	2ee\	Vt
*	*	*	*	*	*	*	*	*	*	*	*custos:b	*	*	*
!	!	!	!	!	!	!	!	!	!	!	!	!	!LO:LB:g=original	!
.	.	.	.	.	.	.	.	2d\	e-	1ryy	2a\	e-	2dd\	e-
!	!	!	!	!	!	!	!	!	!	!	!LO:LB:g=original	!	!	!
.	.	.	.	.	.	.	.	2B/	-ius	.	2b\	-ius	2dd\	-ius
=47-	=47-	=47-	=47-	=47-	=47-	=47-	=47-	=47-	=47-	=47-	=47-	=47-	=47-	=47-
.	.	.	.	.	.	.	.	2.e\	me-	1ryy	2.b\	me-	2.ee\	me-
*	*	*	*	*	*	*	*	*custos:c	*	*	*	*	*	*
.	.	.	.	.	.	.	.	4e\	-ri-	.	4b\	-ri-	4ee\	-ri-
!	!	!	!	!	!	!	!	!LO:LB:g=original	!	!	!	!	!	!
00r	.	00r	.	00r	.	00r	.	2c/	-tis	1ryy	2cc\	-tis	2ee\	-tis
.	.	.	.	.	.	.	.	2.f\	poſ-	.	2.cc\	poſ-	2.ff\	poſ-
=48-	=48-	=48-	=48-	=48-	=48-	=48-	=48-	=48-	=48-	=48-	=48-	=48-	=48-	=48-
.	.	.	.	.	.	.	.	.	.	1ryy	.	.	.	.
.	.	.	.	.	.	.	.	4f\	-si-	.	4cc\	-si-	4ff\	-si-
.	.	.	.	.	.	.	.	2d\	-mus	.	2dd\	-mus	2ff\	-mus
.	.	.	.	.	.	.	.	2.e\	in-	1ryy	2.cc\	in-	2.ee\	in-
.	.	.	.	.	.	.	.	4d\	-no-	.	4cc\	-no-	4ee\	-no-
=49-	=49-	=49-	=49-	=49-	=49-	=49-	=49-	=49-	=49-	=49-	=49-	=49-	=49-	=49-
.	.	.	.	.	.	.	.	2c/	-cen-	1ryy	2cc\	-cen-	2ee\	-cen-
.	.	.	.	.	.	.	.	2B/	-ter	.	2b\	-ter	2dd\	-ter
1r	.	1r	.	1r	.	1r	.	2.A/	Vi-	1ryy	2.a\	Vi-	2.cc\	Vi-
.	.	.	.	.	.	.	.	4A/	-ve-	.	4a\	-ve-	4cc\	-ve-
=50-	=50-	=50-	=50-	=50-	=50-	=50-	=50-	=50-	=50-	=50-	=50-	=50-	=50-	=50-
*	*ij	*	*ij	*	*	*	*	*	*	*	*	*	*	*
2.G/	quam	2.g\	quam	2.b\	quam	2.dd\	qua(m)	1G/	-re	1ryy	1b\	-re	1b\	-re
4A/	pre-	4g\	pre-	4b\	pre-	4cc\	pre-	.	.	.	.	.	.	.
2B/	-ca-	2g\	-ca-	2b\	-ca-	2dd\	-ca-	1r	.	1ryy	1r	.	1r	.
2c/	-mur	2e/	-mur	2g/	-mur	2ee\	-mur	.	.	.	.	.	.	.
*	*Xij	*	*Xij	*	*	*	*Xij	*	*	*	*	*	*	*
=51-	=51-	=51-	=51-	=51-	=51-	=51-	=51-	=51-	=51-	=51-	=51-	=51-	=51-	=51-
*	*	*	*	*custos:cc	*	*	*	*	*	*	*	*	*	*
0r	.	0r	.	0r	.	0r	.	2.G/	quam	1ryy	2.b\	quam	2.dd\	quam
.	.	.	.	.	.	.	.	4A/	pre-	.	4cc\	pre-	4cc\	pr[e]-
.	.	.	.	.	.	.	.	2B/	-ca-	1ryy	2b\	-ca-	2dd\	-ca-
.	.	.	.	.	.	.	.	2c/	-mur	.	2g/	-mur	2ee\	-mur
=52-	=52-	=52-	=52-	=52-	=52-	=52-	=52-	=52-	=52-	=52-	=52-	=52-	=52-	=52-
!	!	!	!	!LO:PB:g=original	!	!	!	!	!	!	!	!	!	!
2.A/	quam	2.a\	quam	2.cc#X\	quam	2.ee\	quam	00r	.	1ryy	00r	.	00r	.
4B/	pre-	4a\	pre-	4dd\	pre-	4dd\	pre-	.	.	.	.	.	.	.
2c#X/	-ca-	2a\	-ca-	2.a\	-ca-	2ee\	-ca-	.	.	1ryy	.	.	.	.
!	!	!	!	!	!	!LO:SIC:v:s=2ff#\	!	!	!	!	!	!	!	!
2d\	-mur	2f#X\	-mur	.	.	2ff\	-mur	.	.	.	.	.	.	.
.	.	.	.	4dd\	-mur	.	.	.	.	.	.	.	.	.
=53-	=53-	=53-	=53-	=53-	=53-	=53-	=53-	=53-	=53-	=53-	=53-	=53-	=53-	=53-
2G/	Vt	2g\	Vt	2b\	Vt	2dd\	Vt	.	.	1ryy	.	.	.	.
*custos:A	*	*	*	*	*	*	*	*	*	*	*	*	*	*
2cny/	e-	2g\	e-	2ccny\	e-	2ee\	e-	.	.	.	.	.	.	.
!LO:PB:g=original	!	!	!	!	!	!	!	!	!	!	!	!	!	!
2A/	-ius	2a\	-ius	2cc\	-ius	2ff\	-ius	.	.	1ryy	.	.	.	.
2.B-X/	me-	2.fny\	me-	2.b-X\	me-	2.dd\	me-	.	.	.	.	.	.	.
=54-	=54-	=54-	=54-	=54-	=54-	=54-	=54-	=54-	=54-	=54-	=54-	=54-	=54-	=54-
.	.	.	.	.	.	.	.	00r	.	1ryy	00r	.	00r	.
4B-y/	-ri-	4f\	-ri-	4b-y\	-ri-	4dd\	-ri-	.	.	.	.	.	.	.
2G/	-tis	2g,<\	-tis	2b-\	-tis	2ee\	-tis	.	.	.	.	.	.	.
2.A/	poſ-	2.e/	poſ-	2.a\	poſ-	2.cc#X\	poſ-	.	.	1ryy	.	.	.	.
*	*	*custos:f	*	*	*	*	*	*	*	*	*	*	*	*
4A/	-si-	4e/	-si-	4a\	-si-	4cc#\	-si-	.	.	.	.	.	.	.
=55-	=55-	=55-	=55-	=55-	=55-	=55-	=55-	=55-	=55-	=55-	=55-	=55-	=55-	=55-
!	!	!LO:PB:g=original	!	!	!	!	!	!	!	!	!	!	!	!
2d\	-mus	2f\	-mus	1a\,<	-mus	2dd\	-mus	.	.	1ryy	.	.	.	.
4A/	in-	4a\	in-	.	.	4cc#X\	in-	.	.	.	.	.	.	.
4Bny/	no-	4a\	no-	.	.	4dd\	.	.	.	.	.	.	.	.
2c#X/	-cen-	2a\	-cen-	2.a\	in-	2ee\	.	.	.	1ryy	.	.	.	.
2d\	-ter	2f\	-ter	.	.	2ff\	-no-	.	.	.	.	.	.	.
.	.	.	.	4bny\	-no-	.	.	.	.	.	.	.	.	.
=56-	=56-	=56-	=56-	=56-	=56-	=56-	=56-	=56-	=56-	=56-	=56-	=56-	=56-	=56-
1A/	Vi-	1.a\	Vi-	2cc#X\	-cen-	2ee\	-cen-	0r	.	1ryy	0r	.	0r	.
*	*	*	*	*	*	*custos:ee	*	*	*	*	*	*	*	*
.	.	.	.	2dd,<\	-ter	2dd\	-ter	.	.	.	.	.	.	.
!	!	!	!	!	!	!LO:PB:g=original	!	!	!	!	!	!	!	!
2A/	.	.	.	2.cc#X\	Vi-	2.ee\	Vi-	.	.	1ryy	.	.	.	.
2A/	-ue-	2a\	-ve-	.	.	.	.	.	.	.	.	.	.	.
*	*	*	*	*custos:dd	*	*	*	*	*	*	*	*	*	*
.	.	.	.	4cc#\	-ve-	4ee\	-ve-	.	.	.	.	.	.	.
=57-	=57-	=57-	=57-	=57-	=57-	=57-	=57-	=57-	=57-	=57-	=57-	=57-	=57-	=57-
*M3/2	*	*M3/2	*	*M3/2	*	*M3/2	*	*M3/2	*	*M3/2	*M3/2	*	*M3/2	*
!	!	!	!	!LO:LB:g=original	!	!	!	!	!	!	!	!	!LO:PB:g=original	!
0d\,<	-re	0f#X\	-re	0dd\	-re	0dd\,<	-re	0.r	.	0.ryy	0.r	.	0.r	.
1d\	et	1f#\	et	1a\	et	1dd\	et	.	.	.	.	.	.	.
=58-	=58-	=58-	=58-	=58-	=58-	=58-	=58-	=58-	=58-	=58-	=58-	=58-	=58-	=58-
1.G/	gau-	1.g\	gau-	1.b\	gau-	1.dd\	gau-	1r	.	0.ryy	1r	.	1r	.
.	.	.	.	.	.	.	.	1r	.	.	1r	.	1r	.
2G/	-di-	2g\	-di-	2b\	-di-	2dd\	-di-	.	.	.	.	.	.	.
*custos:c	*	*	*	*	*	*	*	*	*	*	*custos:cc	*	*	*
1G/	-a	1g\	-a	1b\	-a	1dd\	-a	1g\	et	.	1b\	et	1dd\	et
=59-	=59-	=59-	=59-	=59-	=59-	=59-	=59-	=59-	=59-	=59-	=59-	=59-	=59-	=59-
!LO:LB:g=original	!	!	!	!	!	!	!	!	!	!	!LO:PB:g=original	!	!	!
1r	.	1r	.	1r	.	1r	.	1.c\	gau-	0.ryy	1.cc\	gau-	1.ee\	gau-
1r	.	1r	.	1r	.	1r	.	.	.	.	.	.	.	.
.	.	.	.	.	.	.	.	2c/	-di-	.	2cc\	-di-	2ee\	-di-
*	*	*	*	*	*	*	*	*custos:F	*	*	*	*	*	*
1cny\	et	1g\	et	1g\	et	1cc\	et	1c\	-a	.	1cc\	-a	1ee\	-a
=60-	=60-	=60-	=60-	=60-	=60-	=60-	=60-	=60-	=60-	=60-	=60-	=60-	=60-	=60-
!	!	!	!	!	!	!	!	!LO:PB:g=original	!	!	!	!	!	!
1.f\	gau-	1.fny\	gau-	1.a\	gau-	1.cc\	gau-	1r	.	0.ryy	1r	.	1r	.
.	.	.	.	.	.	.	.	1r	.	.	1r	.	1r	.
2f\	-di-	2f\	-di-	2a\	-di-	2cc\	-di-	.	.	.	.	.	.	.
1f\	-a	1f\	-a	1a\	-a	1cc\	-a	1F/	et	.	1cc\	et	1ff\	et
=61-	=61-	=61-	=61-	=61-	=61-	=61-	=61-	=61-	=61-	=61-	=61-	=61-	=61-	=61-
0.r	.	0.r	.	0.r	.	0.r	.	1.c\	gau-	0.ryy	1.cc\	gau-	1.ee\	gau-
.	.	.	.	.	.	.	.	2c/	-di-	.	2cc\	-di-	2ee\	-di-
.	.	.	.	.	.	.	.	1c\	-a	.	1cc\	-a	1ee\	-a
=62-	=62-	=62-	=62-	=62-	=62-	=62-	=62-	=62-	=62-	=62-	=62-	=62-	=62-	=62-
*M2/1	*	*M2/1	*	*M2/1	*	*M2/1	*	*M2/1	*	*M2/1	*M2/1	*	*M2/1	*
*met(c|)	*	*met(c|)	*	*met(c|)	*	*met(c|)	*	*met(c|)	*	*met(c|)	*met(c|)	*	*met(c|)	*
!	!	!LO:LB:g=original	!	!	!	!	!	!	!	!	!	!	!	!
00r	.	00r	.	00r	.	00r	.	4G/	ae-	1ryy	1b\	ae-	1dd\	ae-
.	.	.	.	.	.	.	.	4A/	.	.	.	.	.	.
.	.	.	.	.	.	.	.	4B/	.	.	.	.	.	.
.	.	.	.	.	.	.	.	4c/	.	.	.	.	.	.
.	.	.	.	.	.	.	.	1d\	-ter-	1ryy	1a\	-ter-	1dd\	-ter-
=63-	=63-	=63-	=63-	=63-	=63-	=63-	=63-	=63-	=63-	=63-	=63-	=63-	=63-	=63-
.	.	.	.	.	.	.	.	2G,</	-na	1ryy	1b\,<	-na	1dd\	-na
.	.	.	.	.	.	.	.	4g\	me-	.	.	.	.	.
.	.	.	.	.	.	.	.	4g\	-re	.	.	.	.	.
.	.	.	.	.	.	.	.	2e\	a-	1ryy	4cc\	me-	2r	.
.	.	.	.	.	.	.	.	.	.	.	4cc\	-re	.	.
.	.	.	.	.	.	.	.	4f\	-mur	.	2a\	a-	4cc\	me-
.	.	.	.	.	.	.	.	4f\	poſ-	.	.	.	4cc\	-re
=64-	=64-	=64-	=64-	=64-	=64-	=64-	=64-	=64-	=64-	=64-	=64-	=64-	=64-	=64-
00r	.	00r	.	00r	.	00r	.	2.d\	-si-	1ryy	4b\	-mur	2ff\	a-
.	.	.	.	.	.	.	.	.	.	.	4b\	poſ-	.	.
.	.	.	.	.	.	.	.	.	.	.	2.b\	-si-	4ff\	-mur
.	.	.	.	.	.	.	.	4d\	-de-	.	.	.	4ff\	poſ-
.	.	.	.	.	.	.	.	2e\	-re	1ryy	.	.	2.ee\	-si-
.	.	.	.	.	.	.	.	.	.	.	4b\	-de-	.	.
.	.	.	.	.	.	.	.	4e\	me-	.	2g/	-re	.	.
.	.	.	.	.	.	.	.	4e\	-re	.	.	.	4ee\	-de-
=65-	=65-	=65-	=65-	=65-	=65-	=65-	=65-	=65-	=65-	=65-	=65-	=65-	=65-	=65-
*	*	*	*	*	*	*	*	*	*	*	*	*	*custos:ff	*
.	.	.	.	.	.	.	.	2c/	a-	1ryy	4cc\	me-	2ee\	-re
*	*	*	*	*	*	*	*	*	*	*	*custos:a	*	*	*
.	.	.	.	.	.	.	.	.	.	.	4cc\	-re	.	.
!	!	!	!	!	!	!	!	!	!	!	!LO:LB:g=original	!	!LO:LB:g=original	!
.	.	.	.	.	.	.	.	4d\	-mur	.	2a\	a-	4ff\	me-
*	*	*	*	*	*	*	*	*custos:B	*	*	*	*	*	*
.	.	.	.	.	.	.	.	4d\	poſ-	.	.	.	4ff\	-re
!	!	!	!	!	!	!	!	!LO:LB:g=original	!	!	!	!	!	!
.	.	.	.	.	.	.	.	2.B/	-si-	1ryy	4b\	-mur	2dd\	a-
.	.	.	.	.	.	.	.	.	.	.	4b\	poſ-	.	.
.	.	.	.	.	.	.	.	.	.	.	4.dd\	-si-	4dd\	-mur
.	.	.	.	.	.	.	.	4B/	-de-	.	.	.	4dd\	poſ-
.	.	.	.	.	.	.	.	.	.	.	8dd\	-de-	.	.
=66-	=66-	=66-	=66-	=66-	=66-	=66-	=66-	=66-	=66-	=66-	=66-	=66-	=66-	=66-
00r	.	00r	.	00r	.	00r	.	2c,</	-re	1ryy	2cc,<\	-re	2.ee\	-si-
.	.	.	.	.	.	.	.	4c/	me-	.	4cc\	me-	.	.
.	.	.	.	.	.	.	.	4c/	-re	.	4cc\	-re	4ee\	-de-
.	.	.	.	.	.	.	.	2G/	a-	1ryy	2dd\	a-	2dd,<\	-re
.	.	.	.	.	.	.	.	4G/	-mur	.	4b\	-mur	4dd\	me-
.	.	.	.	.	.	.	.	4G/	poſ-	.	4dd\	poſ-	4dd\	-re
=67-	=67-	=67-	=67-	=67-	=67-	=67-	=67-	=67-	=67-	=67-	=67-	=67-	=67-	=67-
.	.	.	.	.	.	.	.	2.c/	-si-	1ryy	2.cc\	-si-	2ee\	a-
.	.	.	.	.	.	.	.	.	.	.	.	.	4cc\	-mur
.	.	.	.	.	.	.	.	8B/L	.	.	4cc\	-de-	4cc\	poſ-
.	.	.	.	.	.	.	.	8A/J	.	.	.	.	.	.
.	.	.	.	.	.	.	.	4G/	.	1ryy	2b\	-re	1.dd\	-si-
.	.	.	.	.	.	.	.	4A/	.	.	.	.	.	.
.	.	.	.	.	.	.	.	4B/	.	.	2b\	poſ-	.	.
.	.	.	.	.	.	.	.	4c/	.	.	.	.	.	.
=68-	=68-	=68-	=68-	=68-	=68-	=68-	=68-	=68-	=68-	=68-	=68-	=68-	=68-	=68-
1r	.	1r	.	1r	.	1r	.	2.d\	.	1ryy	2.a\	-si-	.	.
.	.	.	.	.	.	.	.	.	.	.	.	.	2dd\	-de-
.	.	.	.	.	.	.	.	4d\	de	.	4a\	-de-	.	.
=69-	=69-	=69-	=69-	=69-	=69-	=69-	=69-	=69-	=69-	=69-	=69-	=69-	=69-	=69-
*M3/2	*	*M3/2	*	*M3/2	*	*M3/2	*	*M3/2	*	*M3/2	*M3/2	*	*M3/2	*
0.r	.	0.r	.	0.r	.	0.r	.	0G/,<	-re	0ryy	0b\	-re	0dd\	-re
.	.	.	.	.	.	.	.	.	.	.	.	.	.	.
.	.	.	.	.	.	.	.	1G/	et	1ryy	1b\	et	1dd\	et
=70-	=70-	=70-	=70-	=70-	=70-	=70-	=70-	=70-	=70-	=70-	=70-	=70-	=70-	=70-
1r	.	1r	.	1r	.	1r	.	1.c\	gau-	0.ryy	1.cc\	gau-	1.ee\	gau-
1r	.	1r	.	1r	.	1r	.	.	.	.	.	.	.	.
.	.	.	.	.	.	.	.	2c/	-di-	.	2cc\	-di-	2ee\	-di-
*	*	*	*	*	*	*	*	*	*	*	*custos:B	*	*	*
1c\	et	1g\	et	1ccny\	et	1ee\	et	1c\	-a	.	1b\	-a	1dd\	-a
=71-	=71-	=71-	=71-	=71-	=71-	=71-	=71-	=71-	=71-	=71-	=71-	=71-	=71-	=71-
!	!	!	!	!	!	!	!	!	!	!	!LO:LB:g=original	!	!	!
1.G/	gau-	1.g\	gau-	1.b\	gau-	1dd\	gau-	1r	.	1ryy	1r	.	1r	.
.	.	.	.	.	.	1dd\	-di-	1r	.	1ryy	1r	.	1r	.
2G/	-di-	2g\	-di-	2b\	-di-	.	.	.	.	.	.	.	.	.
*	*	*	*	*	*	*	*	*	*	*	*	*	*custos:ff	*
1G/	-a	1g\	-a	1b\	-a	1dd\	-a	1g\	et	1ryy	1b\	et	1dd\	et
=72-	=72-	=72-	=72-	=72-	=72-	=72-	=72-	=72-	=72-	=72-	=72-	=72-	=72-	=72-
!	!	!	!	!	!	!	!	!	!	!	!	!	!LO:LB:g=original	!
1r	.	1r	.	1r	.	1r	.	1.d\	gau-	1.ryy	1.dd\	gau-	1.ff\	gau-
*	*	*	*	*	*	*	*	*custos:d	*	*	*	*	*	*
1r	.	1r	.	1r	.	1r	.	.	.	.	.	.	.	.
.	.	.	.	.	.	.	.	2d\	-di-	1.ryy	2dd\	-di-	2ff\	-di-
*	*	*	*	*custos:cc	*	*custos:ee	*	*	*	*	*	*	*	*
!	!	!	!	!	!	!	!	!LO:LB:g=original	!	!	!	!	!	!
1d\	et	1a\	et	1dd\	et	1ff\	et	1d\	-a	.	1dd\	-a	1ff\	-a
=73-	=73-	=73-	=73-	=73-	=73-	=73-	=73-	=73-	=73-	=73-	=73-	=73-	=73-	=73-
!	!	!	!	!LO:LB:g=original	!	!LO:LB:g=original	!	!	!	!	!	!	!	!
1.A/	gau-	1.a\	gau-	1.cc#X\	gau-	1.ee\	gau-	00.r	.	1.ryy	00.r	.	00.r	.
*custos:A	*	*	*	*	*	*	*	*	*	*	*	*	*	*
2A/	-di-	2a\	-di-	2cc#y\	-di-	2ee\	-di-	.	.	1.ryy	.	.	.	.
!LO:LB:g=original	!	!	!	!	!	!	!	!	!	!	!	!	!	!
1A/	-a	1a\,<	-a	1cc#\	-a	1ee\,<	-a	.	.	.	.	.	.	.
=74-	=74-	=74-	=74-	=74-	=74-	=74-	=74-	=74-	=74-	=74-	=74-	=74-	=74-	=74-
1B-X/	ae-	1g\	ae-	1dd\	ae-	1dd\	ae-	.	.	1.ryy	.	.	.	.
0A/	-ter-	0e\	-ter-	0a\	-ter-	(1dd\	-ter-	.	.	.	.	.	.	.
.	.	.	.	.	.	.	.	.	.	1.ryy	.	.	.	.
.	.	.	.	.	.	1cc#X\)	.	.	.	.	.	.	.	.
=75-	=75-	=75-	=75-	=75-	=75-	=75-	=75-	=75-	=75-	=75-	=75-	=75-	=75-	=75-
*M2/1	*	*M2/1	*	*M2/1	*	*M2/1	*	*M2/1	*	*M2/1	*M2/1	*	*M2/1	*
*met(c|)	*	*met(c|)	*	*met(c|)	*	*met(c|)	*	*met(c|)	*	*met(c|)	*met(c|)	*	*met(c|)	*
1d\	-na	1f#X\,<	-na	1a\	-na	1dd\	-na	2.d\	me-	1ryy	2.a\	me-	2.dd\	me-
.	.	.	.	.	.	.	.	4d\	-re	.	4a\	-re	4dd\	-re
0r	.	0r	.	0r	.	0r	.	2d\	a-	1ryy	2a\	a-	2dd\	a-
.	.	.	.	.	.	.	.	4B-X/	-mur	.	4b-X\	-mur	4dd\	-mur
.	.	.	.	.	.	.	.	4B-/	poſ-	.	4b-\	poſ-	4dd\	poſ-
=76-	=76-	=76-	=76-	=76-	=76-	=76-	=76-	=76-	=76-	=76-	=76-	=76-	=76-	=76-
.	.	.	.	.	.	.	.	2G/	-si-	1ryy	2dd\	-si-	2.ee\	-si-
.	.	.	.	.	.	.	.	2A/	-de-	.	2cc#X\	-de-	.	.
.	.	.	.	.	.	.	.	.	.	.	.	.	4ee\	-de-
2.d\	me-	2.f#X\	me-	2.a\	me-	2.dd\	me-	1d\	-re	1ryy	1dd\	-re	1dd\	-re
*	*	*custos:g	*	*	*	*	*	*	*	*	*	*	*	*
4d\	-re	4f#\	-re	4a\	-re	4dd\	-re	.	.	.	.	.	.	.
=77-	=77-	=77-	=77-	=77-	=77-	=77-	=77-	=77-	=77-	=77-	=77-	=77-	=77-	=77-
!	!	!LO:LB:g=original	!	!	!	!	!	!	!	!	!	!	!	!
2g\	a-	2g\	a-	2b\	a-	2dd\	a-	0r	.	1ryy	0r	.	0r	.
4d\	-mur	4a\	-mur	4dd\	-mur	4ff\	-mur	.	.	.	.	.	.	.
4d\	poſ-	4a\	poſ-	4dd\	poſ-	4ff\	poſ-	.	.	.	.	.	.	.
2.e\	-si-	2.g#X\	-si-	2.b\	-si-	2.ee\	-si-	.	.	1ryy	.	.	.	.
4e\	-de-	4g#\	-de-	4b\	-de-	4ee\	-de-	.	.	.	.	.	.	.
=78-	=78-	=78-	=78-	=78-	=78-	=78-	=78-	=78-	=78-	=78-	=78-	=78-	=78-	=78-
1A/	-re	1a\	-re	1cc#X\	-re	1ee\	-re	2.A/	me-	1ryy	2.cc#X\	me-	2.ee\	me-
.	.	.	.	.	.	.	.	4A/	-re	.	4cc#\	-re	4ee\	-re
2r	.	2r	.	2r	.	2r	.	2d\	a-	1ryy	2dd\	a-	2ff\	a-
4a\	me-	4a\	me-	4a\	me-	4ee\	me-	4A/	-mur	.	4cc#X\	-mur	4ee\	-mur
4a\	-re	4a\	-re	4a\	-re	4ee\	-re	4A/	poſ-	.	4cc#\	poſ-	4ee\	poſ-
=79-	=79-	=79-	=79-	=79-	=79-	=79-	=79-	=79-	=79-	=79-	=79-	=79-	=79-	=79-
2d\	a-	2fny\	a-	2a\	a-	2ff\	a-	4.d\	-si-	1ryy	4.a\	-si-	4.dd\	-si-
*	*	*	*	*	*	*	*	*	*	*	*custos:a	*	*	*
.	.	.	.	.	.	.	.	8d\	-de-	.	8a\	-de-	8dd\	-de-
*	*	*	*	*	*	*	*	*	*	*	*	*	*custos:dd	*
!	!	!	!	!	!	!	!	!	!	!	!LO:LB:g=original	!	!	!
4a\	-mur	4a\	-mur	4a\	-mur	4ee\	-mur	2A,</	-re	.	2a,<\	-re	2cc#X\	-re
4a\	poſ-	4a\	poſ-	4a\	poſ-	4ee\	poſ-	.	.	.	.	.	.	.
*	*	*	*	*	*	*	*	*	*	*	*	*ij	*	*ij
!	!	!	!	!	!	!	!	!	!	!	!	!	!LO:LB:g=original	!
4.d\	-si-	4.a\	-si-	4.a\	-si-	4.dd\	-si-	4d\	me-	1ryy	4a\	me-	4dd\	me-
.	.	.	.	.	.	.	.	4d\	-re	.	4a\	-re	4dd\	-re
*custos:a	*	*	*	*custos:a	*	*	*	*	*	*	*	*	*	*
8d\	-de-	8a\	-de-	8a\	-de-	8dd\	-de-	.	.	.	.	.	.	.
*	*	*	*	*	*	*	*	*custos:d	*	*	*	*	*	*
!LO:LB:g=original	!	!	!	!LO:LB:g=original	!	!	!	!	!	!	!	!	!	!
2A/	-re	2a\	-re	2a\	-re	2cc#X\	-re	2a\	a-	.	2a\	a-	2ee\	a-
=80-	=80-	=80-	=80-	=80-	=80-	=80-	=80-	=80-	=80-	=80-	=80-	=80-	=80-	=80-
!	!	!	!	!	!	!	!	!LO:LB:g=original	!	!	!	!	!	!
2r	.	2r	.	2r	.	2r	.	4d\	-mur	1ryy	4a\	-mur	4ff\	-mur
.	.	.	.	.	.	.	.	4c#X\	poſ-	.	4a\	poſ-	4ee\	poſ-
*	*	*	*ij	*	*	*	*	*	*	*	*	*	*	*
4d\	me-	4a\	me-	4a\	me-	4dd\	me-	4.d\	-si-	.	4.a\	-si-	4.dd\	-si-
4d\	-re	4a\	-re	4a\	-re	4dd\	-re	.	.	.	.	.	.	.
.	.	.	.	.	.	.	.	8d\	-de-	.	8a\	-de-	8dd\	-de-
2a\	a-	2a\	a-	2a\	a-	2ee\	a-	2A/	-re	1ryy	2a,<\	-re	2cc,<\	-re
*	*	*	*	*	*	*	*	*	*	*	*	*Xij	*	*Xij
4a\	-mur	4a\	-mur	4a\	-mur	4ee\	-mur	4A/	me-	.	4a\	me-	4ee\	me-
4a\	poſ-	4e/	poſ-	4a\	poſ-	4ee\	poſ-	4A/	-re	.	4a\	-re	4ee\	-re
=81-	=81-	=81-	=81-	=81-	=81-	=81-	=81-	=81-	=81-	=81-	=81-	=81-	=81-	=81-
2.d\	-si-	4.f#X\	-si-	2.a\	-si-	2.dd\	-si-	1d\	a-	1ryy	1a\	a-	1ff#X\	a-
.	.	8f#\	-de-	.	.	.	.	.	.	.	.	.	.	.
.	.	2f#\	-re	.	.	.	.	.	.	.	.	.	.	.
*	*	*	*Xij	*	*	*	*	*	*	*	*	*	*	*
4d\	-de-	.	.	4a\	-de-	4dd\	-de-	.	.	.	.	.	.	.
1g\	-re	2r	.	1g\	-re	2dd,<\	-re	2G/	-mur	1ryy	2b-X\	-mur	1.gg\	-mur
.	.	4d/	me-	.	.	2ee\	poſ-	2G/	poſ-	.	2b-\	poſ-	.	.
*	*	*custos:a	*	*	*	*	*	*	*	*	*	*	*	*
.	.	4d/	-re	.	.	.	.	.	.	.	.	.	.	.
=82-	=82-	=82-	=82-	=82-	=82-	=82-	=82-	=82-	=82-	=82-	=82-	=82-	=82-	=82-
!	!	!LO:LB:g=original	!	!	!	!	!	!	!	!	!	!	!	!
2r	.	2a\	a-	2r	.	2cc#X\	-si-	1.A/	-si-	1ryy	1.a\	-si-	.	.
2a\	poſ-	4fny\	-mur	2dd\	poſ-	1dd\	-de-	.	.	.	.	.	2ff\	poſ-
.	.	4f\	poſ-	.	.	.	.	.	.	.	.	.	.	.
2.a\	-si-	2.a\	-si-	2.a\	-si-	.	.	.	.	1ryy	.	.	2.ee\	-si-
.	.	.	.	.	.	2cc#X\	.	2A/	-de-	.	2a\	-de-	.	.
4a\	-de-	4e/	-de-	4a\	-de-	.	.	.	.	.	.	.	4ee\	-de-
=83-	=83-	=83-	=83-	=83-	=83-	=83-	=83-	=83-	=83-	=83-	=83-	=83-	=83-	=83-
!LO:TX:t=P:problem=kreska pseudotaktowa	!	!LO:TX:t=P:problem=kreska pseudotaktowa	!	!LO:TX:t=P:problem=kreska pseudotaktowa	!	!LO:TX:t=P:problem=kreska pseudotaktowa	!	!LO:TX:t=P:problem=kreska pseudotaktowa	!	!	!LO:TX:t=P:problem=kreska pseudotaktowa	!	!LO:TX:t=P:problem=kreska pseudotaktowa	!
1d\;	-re	1f#X\;	-re	1a\;	-re	1dd\;	-re	1d\;	-re	1ryy	1a\;	-re	1dd\;	-re
0r	.	0r	.	0r	.	0r	.	2.A/	quam	1ryy	2.ee\	quam	2.cc#X\	quam
.	.	.	.	.	.	.	.	4B/	pre-	.	4ee\	pre-	4dd\	pre-
=84-	=84-	=84-	=84-	=84-	=84-	=84-	=84-	=84-	=84-	=84-	=84-	=84-	=84-	=84-
.	.	.	.	.	.	.	.	2c#X/	-ca-	1ryy	2ee\	-ca-	2ee\	-ca-
.	.	.	.	.	.	.	.	2d\	-mur	.	2dd\	-mur	2ff\	-mur
2.A/	quam	2.a\	quam	2.a\	quam	2.cc#X\	quam	0r	.	1ryy	0r	.	0r	.
4Bny/	pre-	4a\	pre-	4a\	pre-	4dd\	pre-	.	.	.	.	.	.	.
=85-	=85-	=85-	=85-	=85-	=85-	=85-	=85-	=85-	=85-	=85-	=85-	=85-	=85-	=85-
2c#X/	-ca-	2a\	-ca-	2.a\	-ca-	2ee\	-ca-	.	.	1ryy	.	.	.	.
2d\	-mur	2fny\	-mur	.	.	2ff\	-mur	.	.	.	.	.	.	.
.	.	.	.	4dd\	-mur	.	.	.	.	.	.	.	.	.
*	*	*	*	*	*	*	*	*	*ij	*	*	*	*	*
*custos:G	*	*	*	*	*	*custos:b	*	*	*	*	*	*	*	*
0r	.	0r	.	0r	.	0r	.	2.G/	quam	1ryy	2.dd\	qua(m)	2.b/	quam
*	*	*	*	*	*	*	*	*	*	*	*custos:dd	*	*custos:dd	*
.	.	.	.	.	.	.	.	4A/	pre-	.	4dd\	pre-	4cc\	pre-
=86-	=86-	=86-	=86-	=86-	=86-	=86-	=86-	=86-	=86-	=86-	=86-	=86-	=86-	=86-
!	!	!	!	!	!	!	!	!	!	!	!LO:LB:g=original	!	!	!
.	.	.	.	.	.	.	.	2B/	-ca-	1ryy	2dd\	-ca-	2dd\	-ca-
*	*	*	*	*	*	*	*	*custos:G	*	*	*	*	*	*
.	.	.	.	.	.	.	.	2c/	-mur	.	2cc\	-mur	2ee\	-mur
!LO:LB:g=original	!	!	!	!	!	!LO:LB:g=original	!	!LO:LB:g=original	!	!	!	!	!	!
2.G/	quam	2.gny\	quam	2.dd\	quam	2.b/	quam	00r	.	1ryy	00r	.	00r	.
4A/	pre-	4g\	pre-	4ccny\	pre-	4cc\	pre-	.	.	.	.	.	.	.
=87-	=87-	=87-	=87-	=87-	=87-	=87-	=87-	=87-	=87-	=87-	=87-	=87-	=87-	=87-
*	*	*	*	*custos:g	*	*	*	*	*	*	*	*	*	*
2B/	-ca-	2g\	-ca-	2b\	-ca-	2dd\	-ca-	.	.	1ryy	.	.	.	.
!	!	!	!	!LO:LB:g=original	!	!	!	!	!	!	!	!	!	!
2cny/	-mur	2g\	-mur	2g/	-mur	2ee\	-mur	.	.	.	.	.	.	.
2c/	Vt	2g\	Vt	2cc\	Vt	2ee\	Vt	.	.	1ryy	.	.	.	.
2c/	e-	2g\	e-	2cc\	e-	2ee\	e-	.	.	.	.	.	.	.
=88-	=88-	=88-	=88-	=88-	=88-	=88-	=88-	=88-	=88-	=88-	=88-	=88-	=88-	=88-
2c/	-ius	2g\	-ius	2cc\	-ius	2ee\	-ius	.	.	1ryy	.	.	.	.
2.f\	me-	2.a\	me-	2.cc\	me-	2.ff\	me-	.	.	.	.	.	.	.
.	.	.	.	.	.	.	.	00r	.	1ryy	00r	.	00r	.
*	*	*custos:b	*	*	*	*	*	*	*	*	*	*	*	*
4f\	-ri-	4a\	-ri-	4cc\	-ri-	4ff\	-ri-	.	.	.	.	.	.	.
!	!	!LO:LB:g=original	!	!	!	!	!	!	!	!	!	!	!	!
2d\	-tis	2b\	-tis	2dd,<\	-tis	2ff,<\	-tis	.	.	.	.	.	.	.
=89-	=89-	=89-	=89-	=89-	=89-	=89-	=89-	=89-	=89-	=89-	=89-	=89-	=89-	=89-
2.e\	poſ-	2.g\	poſ-	2.b\	poſ-	2.ee\	poſ-	.	.	1ryy	.	.	.	.
4e\	-si-	4g\	-si-	4b\	-si-	4ee\	-si-	.	.	.	.	.	.	.
2c,</	-mus	2a,<\	-mus	2cc\	-mus	2ee\	-mus	.	.	1ryy	.	.	.	.
4A/	in-	4a\	in-	4ee\	in-	4cc\	in-	.	.	.	.	.	.	.
4B/	-no-	4a\	-no-	4dd\	-no-	4dd\	-no-	.	.	.	.	.	.	.
=90-	=90-	=90-	=90-	=90-	=90-	=90-	=90-	=90-	=90-	=90-	=90-	=90-	=90-	=90-
2c/	-cen-	2g\	-cen-	2cc\	-cen-	2ee\	-cen-	.	.	1ryy	.	.	.	.
2G/	-ter	2g\	-ter	2b\	-ter	2dd\	-ter	.	.	.	.	.	.	.
2.d\	Vi-	2.f#X\	Vi-	2.a\	Vi-	2.dd\	Vi-	1r	.	1ryy	1r	.	1r	.
*	*	*	*	*	*	*custos:dd	*	*	*	*	*	*	*	*
4d\	-ve-	4f#\	-ve-	4a\	-ve-	4dd\	-ve-	.	.	.	.	.	.	.
=91-	=91-	=91-	=91-	=91-	=91-	=91-	=91-	=91-	=91-	=91-	=91-	=91-	=91-	=91-
*	*	*	*	*	*	*	*	*	*	*	*	*	*	*ij
*custos:d	*	*	*	*	*	*	*	*	*	*	*	*	*	*
!	!	!	!	!	!	!LO:LB:g=original	!	!	!	!	!	!	!	!
1G/	-re	1g\	-re	1b\	-re	1dd\	-re	2.G/	quam	1ryy	2.dd\	quam	2.gg\	quam
.	.	.	.	.	.	.	.	4A/	pre-	.	4cc\	pre-	4cc\	pre-
!LO:LB:g=original	!	!	!	!	!	!	!	!	!	!	!	!	!	!
1r	.	1r	.	1r	.	1r	.	2B/	-ca-	1ryy	2b\	-ca-	2dd\	-ca-
.	.	.	.	.	.	.	.	2c/	-mur	.	2g/	-mur	2ee\	-mur
*	*	*	*	*	*	*	*	*	*Xij	*	*	*	*	*Xij
=92-	=92-	=92-	=92-	=92-	=92-	=92-	=92-	=92-	=92-	=92-	=92-	=92-	=92-	=92-
2.G/	quam	2.g\	quam	2.b\	quam	2.dd\	quam	1r	.	1ryy	1r	.	1r	.
4A/	pre-	4g\	pre-	4a\	pre-	4cc\	pre-	.	.	.	.	.	.	.
2B/	-ca-	2g\	-ca-	2.g/	-ca-	2dd\	-ca-	2r	.	1ryy	2r	.	2r	.
2c/	-mur	2g\	-mur	.	.	2ee\	-mur	2.c/	quam	.	2.cc\	quam	2.ee\	quam
*	*	*	*	*custos:b	*	*	*	*	*	*	*	*	*	*
.	.	.	.	4cc\	-mur	.	.	.	.	.	.	.	.	.
=93-	=93-	=93-	=93-	=93-	=93-	=93-	=93-	=93-	=93-	=93-	=93-	=93-	=93-	=93-
!	!	!	!	!LO:LB:g=original	!	!	!	!	!	!	!	!	!	!
00r	.	00r	.	00r	.	00r	.	.	.	1ryy	.	.	.	.
.	.	.	.	.	.	.	.	4c/	pre-	.	4cc\	pre-	4ee\	pre-
.	.	.	.	.	.	.	.	2G/	-ca-	.	2b\	-ca-	2dd\	-ca-
.	.	.	.	.	.	.	.	2c/	-mur	1ryy	2cc\	-mur	2ee\	-mur
.	.	.	.	.	.	.	.	2A/	Vt	.	2cc\	Vt	2ee\	Vt
=94-	=94-	=94-	=94-	=94-	=94-	=94-	=94-	=94-	=94-	=94-	=94-	=94-	=94-	=94-
.	.	.	.	.	.	.	.	2d\	e-	1ryy	2a\	e-	2dd\	e-
.	.	.	.	.	.	.	.	2B/	-ius	.	2b,<\	-ius	2dd\	-ius
.	.	.	.	.	.	.	.	2.e\	me-	1ryy	2.b\	me-	2.ee\	me-
.	.	.	.	.	.	.	.	4e\	-ri-	.	4b\	-ri-	4ee\	-ri-
=95-	=95-	=95-	=95-	=95-	=95-	=95-	=95-	=95-	=95-	=95-	=95-	=95-	=95-	=95-
00r	.	00r	.	00r	.	00r	.	2c/	-tis	1ryy	2cc\	-tis	2ee\	-tis
.	.	.	.	.	.	.	.	2.f\	poſ-	.	2.cc\	poſ-	2.ff\	poſ-
.	.	.	.	.	.	.	.	.	.	1ryy	.	.	.	.
.	.	.	.	.	.	.	.	4f\	-si-	.	4cc\	-si-	4ff\	-si-
*	*	*	*	*	*	*	*	*	*	*	*custos:cc	*	*custos:ee	*
.	.	.	.	.	.	.	.	2d\	-mus	.	2dd\	-mus	2ff\	-mus
=96-	=96-	=96-	=96-	=96-	=96-	=96-	=96-	=96-	=96-	=96-	=96-	=96-	=96-	=96-
!	!	!	!	!	!	!	!	!	!	!	!LO:LB:g=original	!	!LO:LB:g=original	!
.	.	.	.	.	.	.	.	2.e\	in-	1ryy	2.cc\	in-	2.ee\	in-
.	.	.	.	.	.	.	.	4d\	-no-	.	4cc\	-no-	4ee\	-no-
.	.	.	.	.	.	.	.	2c/	-cen-	1ryy	2cc\	-cen-	2ee\	-cen-
*	*	*	*	*	*	*	*	*custos:A	*	*	*	*	*	*
.	.	.	.	.	.	.	.	2B/	-ter	.	2b\	-ter	2dd\	-ter
=97-	=97-	=97-	=97-	=97-	=97-	=97-	=97-	=97-	=97-	=97-	=97-	=97-	=97-	=97-
!	!	!	!	!	!	!	!	!LO:LB:g=original	!	!	!	!	!	!
1r	.	1r	.	1r	.	1r	.	2.A/	Vi-	1ryy	2.a\	Vi-	2.cc\	Vi-
.	.	.	.	.	.	.	.	4A/	-ve-	.	4a\	-ve-	4cc\	-ve-
*	*ij	*	*	*	*ij	*	*ij	*	*	*	*	*	*	*
2.G/	quam	2.g\	quam	2.b\	quam	2.dd\	quam	1G/	-re	1ryy	1b\	-re	1b\	-re
*	*	*custos:g	*	*	*	*	*	*	*	*	*	*	*	*
4A/	pre-	4g\	pre-	4cc\	pre-	4cc\	pre-	.	.	.	.	.	.	.
=98-	=98-	=98-	=98-	=98-	=98-	=98-	=98-	=98-	=98-	=98-	=98-	=98-	=98-	=98-
!	!	!LO:LB:g=original	!	!	!	!	!	!	!	!	!	!	!	!
2B/	-ca-	2g\	-ca-	2b\	-ca-	2dd\	-ca-	1r	.	1ryy	1r	.	1r	.
2c/	-mur	2e/	-mur	2g/	-mur	2ee\	-mur	.	.	.	.	.	.	.
*	*Xij	*	*	*	*Xij	*	*Xij	*	*	*	*	*	*	*
0r	.	0r	.	0r	.	0r	.	2.G/	quam	1ryy	2.b\	quam	2.dd\	quam
.	.	.	.	.	.	.	.	4A/	pre-	.	4cc\	pre-	4cc\	pre-
=99-	=99-	=99-	=99-	=99-	=99-	=99-	=99-	=99-	=99-	=99-	=99-	=99-	=99-	=99-
.	.	.	.	.	.	.	.	2B/	-ca-	1ryy	2b\	-ca-	2dd\	-ca-
.	.	.	.	.	.	.	.	2c/	-mur	.	2g/	-mur	2ee\	-mur
2.A/	quam	2.a\	quam	2.cc#X\	quam	2.ee\	quam	1r	.	1ryy	00r	.	00r	.
4B/	pre-	4a\	pre-	4dd\	pre-	4dd\	pre-	.	.	.	.	.	.	.
=100-	=100-	=100-	=100-	=100-	=100-	=100-	=100-	=100-	=100-	=100-	=100-	=100-	=100-	=100-
2c#X/	-ca-	2a\	-ca-	2.a\	-ca-	2ee\	-ca-	00r	.	1ryy	.	.	.	.
!	!	!	!	!	!	!LO:SIC:v:s=2ff#\	!	!	!	!	!	!	!	!
2d\	-mur	2f#X\	-mur	.	.	2ff\	-mur	.	.	.	.	.	.	.
.	.	.	.	4dd\	-mur	.	.	.	.	.	.	.	.	.
2G/	Vt	2g\	Vt	2b\	Vt	2dd\	Vt	.	.	1ryy	.	.	.	.
2cny/	e-	2g\	e-	2ccny\	e-	2ee\	e-	.	.	.	.	.	.	.
=101-	=101-	=101-	=101-	=101-	=101-	=101-	=101-	=101-	=101-	=101-	=101-	=101-	=101-	=101-
2A/	-ius	2a\	-ius	2cc\	-ius	2ff\	-ius	.	.	1ryy	.	.	.	.
2.B-X/	me-	2.fny\	me-	2.b-X\	me-	2.dd\	me-	.	.	.	.	.	.	.
.	.	.	.	.	.	.	.	.	.	1ryy	00r	.	00r	.
*	*	*	*	*	*	*custos:ee	*	*	*	*	*	*	*	*
4B-/	-ri-	4f\	-ri-	4b-y\	-ri-	4dd\	-ri-	.	.	.	.	.	.	.
*custos:A	*	*	*	*	*	*	*	*	*	*	*	*	*	*
!	!	!	!	!	!	!LO:LB:g=original	!	!	!	!	!	!	!	!
2G/	-tis	2g\	-tis	2b-\	-tis	2ee\	-tis	.	.	.	.	.	.	.
=102-	=102-	=102-	=102-	=102-	=102-	=102-	=102-	=102-	=102-	=102-	=102-	=102-	=102-	=102-
!LO:PB:g=original	!	!	!	!	!	!	!	!	!	!	!	!	!	!
2.A/	poſ-	2.e/	poſ-	2.a\	poſ-	2.cc#X\	poſ-	00r	.	1ryy	.	.	.	.
4A/	-si-	4e/	-si-	4a\	-si-	4cc#\	-si-	.	.	.	.	.	.	.
2d\	-mus	2f\	-mus	1a\	-mus	2dd\	-mus	.	.	1ryy	.	.	.	.
4A/	in-	4a\	in-	.	.	4cc#X\	in-	.	.	.	.	.	.	.
4Bny/	-no-	4a\	-no-	.	.	4dd\	.	.	.	.	.	.	.	.
=103-	=103-	=103-	=103-	=103-	=103-	=103-	=103-	=103-	=103-	=103-	=103-	=103-	=103-	=103-
2c#X/	-cen-	2a\	-cen-	2.a\	in-	2ee\	.	.	.	1ryy	.	.	.	.
*	*	*custos:a	*	*	*	*	*	*	*	*	*	*	*	*
2d\	-ter	2f\	-ter	.	.	2ff\	no-	.	.	.	.	.	.	.
*	*	*	*	*custos:cc	*	*	*	*	*	*	*	*	*	*
.	.	.	.	4bny\	-no-	.	.	.	.	.	.	.	.	.
!	!	!LO:PB:g=original	!	!LO:PB:g=original	!	!	!	!	!	!	!	!	!	!
1.A/	Vi-	1.a\	Vi-	2cc#X\	-cen-	2ee\	-cen-	.	.	1ryy	0r	.	0r	.
.	.	.	.	2dd\	-ter	2dd,<\	-ter	.	.	.	.	.	.	.
=104-	=104-	=104-	=104-	=104-	=104-	=104-	=104-	=104-	=104-	=104-	=104-	=104-	=104-	=104-
!	!	!	!	!	!	!	!	!LO:N:vis=0	!	!	!	!	!	!
.	.	.	.	2.cc#X\	Vi-	2.ee\	Vi-	1r	.	1ryy	.	.	.	.
2A/	-ve-	2a\	-ve-	.	.	.	.	.	.	.	.	.	.	.
.	.	.	.	4cc#\	-ue-	4ee\	-ve-	.	.	.	.	.	.	.
=105-	=105-	=105-	=105-	=105-	=105-	=105-	=105-	=105-	=105-	=105-	=105-	=105-	=105-	=105-
*M3/2	*	*M3/2	*	*M3/2	*	*M3/2	*	*M3/2	*	*M3/2	*M3/2	*	*M3/2	*
0d\	-re	0f#X\	-re	0dd\	-re	0dd\,<	-re	0.r	.	1.ryy	0.r	.	0.r	.
.	.	.	.	.	.	.	.	.	.	1.ryy	.	.	.	.
1d\	et	1f#\	et	1a\	et	1dd\	et	.	.	.	.	.	.	.
=106-	=106-	=106-	=106-	=106-	=106-	=106-	=106-	=106-	=106-	=106-	=106-	=106-	=106-	=106-
1.G/	gau-	1.g\	glo-	1b\	gau-	1dd\	gau-	1r	.	1ryy	1r	.	1r	.
.	.	.	.	1b\	-di-	1dd\	-di-	1r	.	1ryy	1r	.	1r	.
2G/	-di-	2g\	-ri-	.	.	.	.	.	.	.	.	.	.	.
*	*	*	*	*	*	*custos:cc	*	*	*	*	*	*	*	*
1G/	-a	1g\	-a	1b\	-a	1dd\	-a	1g\	Et	1ryy	1a\	Et	1dd\	Et
=107-	=107-	=107-	=107-	=107-	=107-	=107-	=107-	=107-	=107-	=107-	=107-	=107-	=107-	=107-
!	!	!	!	!	!	!LO:PB:g=original	!	!	!	!	!	!	!	!
1r	.	1r	.	1r	.	1r	.	1.c\	gau-	1.ryy	1.cc\	gau-	1.ee\	gau-
1r	.	1r	.	1r	.	1r	.	.	.	.	.	.	.	.
.	.	.	.	.	.	.	.	2c/	-di-	1.ryy	2cc\	-di-	2ee\	-di-
1cny\	et	1g\	et	1g\	et	1cc\	et	1c\	-a	.	1cc\	-a	1ee\	-a
=108-	=108-	=108-	=108-	=108-	=108-	=108-	=108-	=108-	=108-	=108-	=108-	=108-	=108-	=108-
1f\	gau-	1.fny\	glo-	1a\	gau-	1cc\	gau-	1r	.	1ryy	1r	.	1r	.
1f\	-di-	.	.	1a\	-di-	1cc\	-di-	1r	.	1ryy	1r	.	1r	.
.	.	2f\	-ri-	.	.	.	.	.	.	.	.	.	.	.
*	*	*	*	*	*	*	*	*	*	*	*	*	*custos:ee	*
1f\	-a	1f\	-a	1a\	-a	1cc\	-a	1F/	et	1ryy	1cc\	et	1ff\	et
=109-	=109-	=109-	=109-	=109-	=109-	=109-	=109-	=109-	=109-	=109-	=109-	=109-	=109-	=109-
*custos:c	*	*	*	*	*	*	*	*	*	*	*	*	*	*
!	!	!	!	!	!	!	!	!	!	!	!	!	!LO:PB:g=original	!
0.r	.	0.r	.	0r	.	0.r	.	1.c\	gau-	1.ryy	1.cc\	gau-	1.ee\	gau-
.	.	.	.	.	.	.	.	2c/	-di-	1.ryy	2cc\	-di-	2ee\	-di-
*	*	*	*	*	*	*	*	*	*	*	*custos:b	*	*	*
.	.	.	.	1r	.	.	.	1c\	-a	.	1cc\	-a	1ee\	-a
=110-	=110-	=110-	=110-	=110-	=110-	=110-	=110-	=110-	=110-	=110-	=110-	=110-	=110-	=110-
*M2/1	*	*M2/1	*	*M2/1	*	*M2/1	*	*M2/1	*	*M2/1	*M2/1	*	*M2/1	*
*met(c|)	*	*met(c|)	*	*met(c|)	*	*met(c|)	*	*met(c|)	*	*met(c|)	*met(c|)	*	*met(c|)	*
!LO:LB:g=original	!	!	!	!	!	!	!	!	!	!	!LO:PB:g=original	!	!	!
00r	.	00r	.	00r	.	00r	.	4G/	ae-	1ryy	1b\	ae-	1dd\	ae-
.	.	.	.	.	.	.	.	4A/	.	.	.	.	.	.
.	.	.	.	.	.	.	.	4B/	.	.	.	.	.	.
.	.	.	.	.	.	.	.	4c/	.	.	.	.	.	.
.	.	.	.	.	.	.	.	1d\	-ter-	1ryy	1a\	-ter-	1dd\	-ter-
=111-	=111-	=111-	=111-	=111-	=111-	=111-	=111-	=111-	=111-	=111-	=111-	=111-	=111-	=111-
*	*	*	*	*	*	*	*	*custos:g	*	*	*	*	*	*
.	.	.	.	.	.	.	.	2G/	-na	1ryy	1b\	-na	1dd\	-na
!	!	!	!	!	!	!	!	!LO:PB:g=original	!	!	!	!	!	!
.	.	.	.	.	.	.	.	4g\	me-	.	.	.	.	.
.	.	.	.	.	.	.	.	4g\	-re	.	.	.	.	.
.	.	.	.	.	.	.	.	2e\	a-	1ryy	4cc\	me-	2r	.
.	.	.	.	.	.	.	.	.	.	.	4cc\	-re	.	.
.	.	.	.	.	.	.	.	4f\	-mur	.	2a\	a-	4cc\	me-
.	.	.	.	.	.	.	.	4f\	poſ-	.	.	.	4cc\	-re
=112-	=112-	=112-	=112-	=112-	=112-	=112-	=112-	=112-	=112-	=112-	=112-	=112-	=112-	=112-
00r	.	00r	.	00r	.	00r	.	2.d\	-si-	1ryy	4b\	-mur	2ff\	a-
.	.	.	.	.	.	.	.	.	.	.	4b\	poſ-	.	.
.	.	.	.	.	.	.	.	.	.	.	2.b\	-si-	4ff\	-mur
.	.	.	.	.	.	.	.	4d\	-de-	.	.	.	4ff\	poſ-
.	.	.	.	.	.	.	.	2e\	-re	1ryy	.	.	2.ee\	-si-
.	.	.	.	.	.	.	.	.	.	.	4b\	-de-	.	.
.	.	.	.	.	.	.	.	4e\	me-	.	2g,</	-re	.	.
.	.	.	.	.	.	.	.	4e\	-re	.	.	.	4ee\	-de-
=113-	=113-	=113-	=113-	=113-	=113-	=113-	=113-	=113-	=113-	=113-	=113-	=113-	=113-	=113-
.	.	.	.	.	.	.	.	2c/	a-	1ryy	4cc\	me-	2ee,<\	-re
.	.	.	.	.	.	.	.	.	.	.	4cc\	-re	.	.
.	.	.	.	.	.	.	.	4d\	-mur	.	2a\	a-	4ff\	me-
.	.	.	.	.	.	.	.	4d\	poſ-	.	.	.	4ff\	-re
.	.	.	.	.	.	.	.	2.B/	-si-	1ryy	4b\	-mur	2dd\	a-
.	.	.	.	.	.	.	.	.	.	.	4b\	poſ-	.	.
.	.	.	.	.	.	.	.	.	.	.	4.dd\	-si-	4dd\	-mur
.	.	.	.	.	.	.	.	4B/	-de-	.	.	.	4dd\	poſ-
.	.	.	.	.	.	.	.	.	.	.	8dd\	-de-	.	.
=114-	=114-	=114-	=114-	=114-	=114-	=114-	=114-	=114-	=114-	=114-	=114-	=114-	=114-	=114-
00r	.	00r	.	00r	.	00r	.	2c,</	-re	1ryy	2cc,<\	-re	2.ee\	-si-
.	.	.	.	.	.	.	.	4c/	me-	.	4cc\	me-	.	.
*	*	*	*	*	*	*	*	*	*	*	*	*	*custos:dd	*
.	.	.	.	.	.	.	.	4c/	-re	.	4cc\	-re	4ee\	-de-
!	!	!	!	!	!	!	!	!	!	!	!	!	!LO:LB:g=original	!
.	.	.	.	.	.	.	.	2.G/	a-	1ryy	2dd\	a-	2dd\	-re
.	.	.	.	.	.	.	.	.	.	.	4b\	-mur	4dd\	me-
*	*	*	*	*	*	*	*	*	*	*	*custos:cc	*	*	*
.	.	.	.	.	.	.	.	4G/	mur	.	4dd\	poſ-	4dd\	-re
=115-	=115-	=115-	=115-	=115-	=115-	=115-	=115-	=115-	=115-	=115-	=115-	=115-	=115-	=115-
!	!	!	!	!	!	!	!	!	!	!	!LO:LB:g=original	!	!	!
.	.	.	.	.	.	.	.	2.c/	poſ-	1ryy	2.cc\	-si-	2ee\	a-
.	.	.	.	.	.	.	.	.	.	.	.	.	4cc\	-mur
.	.	.	.	.	.	.	.	8B/L	.	.	4cc\,<	de-	4cc\	poſ-
.	.	.	.	.	.	.	.	8A/J	.	.	.	.	.	.
.	.	.	.	.	.	.	.	4G/	-si-	1ryy	2b\	-re	1.dd\	-si-
.	.	.	.	.	.	.	.	4A/	.	.	.	.	.	.
.	.	.	.	.	.	.	.	4B/	.	.	2b\	poſ-	.	.
*	*	*	*	*	*	*	*	*custos:d	*	*	*	*	*	*
.	.	.	.	.	.	.	.	4c/	.	.	.	.	.	.
=116-	=116-	=116-	=116-	=116-	=116-	=116-	=116-	=116-	=116-	=116-	=116-	=116-	=116-	=116-
*	*	*	*	*custos:cc	*	*	*	*	*	*	*	*	*	*
!	!	!	!	!	!	!	!	!LO:LB:g=original	!	!	!	!	!	!
1r	.	1r	.	1r	.	1r	.	2.d\	.	1ryy	2.a\	-si-	.	.
.	.	.	.	.	.	.	.	.	.	.	.	.	2dd\	-de-
.	.	.	.	.	.	.	.	4d\	de-	.	4a\	de-	.	.
=117-	=117-	=117-	=117-	=117-	=117-	=117-	=117-	=117-	=117-	=117-	=117-	=117-	=117-	=117-
*M3/2	*	*M3/2	*	*M3/2	*	*M3/2	*	*M3/2	*	*M3/2	*M3/2	*	*M3/2	*
!	!	!	!	!LO:LB:g=original	!	!	!	!	!	!	!	!	!	!
0.r	.	0.r	.	0.r	.	0.r	.	0G/,<	-re	1.ryy	0b\	-re	0dd\	-re
.	.	.	.	.	.	.	.	.	.	1.ryy	.	.	.	.
.	.	.	.	.	.	.	.	1G/	et	.	1b\	et	1dd\	et
=118-	=118-	=118-	=118-	=118-	=118-	=118-	=118-	=118-	=118-	=118-	=118-	=118-	=118-	=118-
1r	.	1r	.	1r	.	1r	.	1.c\	gau-	1.ryy	1.cc\	gau-	1.ee\	gau-
1r	.	1r	.	1r	.	1r	.	.	.	.	.	.	.	.
.	.	.	.	.	.	.	.	2c/	-di-	1.ryy	2cc\	-di-	2ee\	-di-
*	*	*custos:g	*	*	*	*	*	*	*	*	*	*	*	*
1c\	et	1g\	et	1ccny\	et	1ee\	et	1c\	-a	.	1cc\	-a	1dd\	-a
=119-	=119-	=119-	=119-	=119-	=119-	=119-	=119-	=119-	=119-	=119-	=119-	=119-	=119-	=119-
!	!	!LO:LB:g=original	!	!	!	!	!	!	!	!	!	!	!	!
1.G/	gau-	1.g\	glo-	1.b\	gau-	1dd\	gau-	1r	.	1ryy	1r	.	1r	.
.	.	.	.	.	.	1dd\	-di-	1r	.	1ryy	1r	.	1r	.
2G/	-di-	2g\	-ri-	2b\	-di-	.	.	.	.	.	.	.	.	.
1G/	-a	1g\	-a	1b\	-a	1dd\	-a	1a\	et	1ryy	1b\	et	1dd\	et
=120-	=120-	=120-	=120-	=120-	=120-	=120-	=120-	=120-	=120-	=120-	=120-	=120-	=120-	=120-
1r	.	1r	.	1r	.	1r	.	1.d\	gau-	1.ryy	1.dd\	gau-	1.ff\	gau-
1r	.	1r	.	1r	.	1r	.	.	.	.	.	.	.	.
.	.	.	.	.	.	.	.	2d\	-di-	1.ryy	2dd\	-di-	2ff\	-di-
1d\	et	1a\	et	1dd\	et	1ff\	et	1d\	-a	.	1dd\	-a	1ff\	-a
=121-	=121-	=121-	=121-	=121-	=121-	=121-	=121-	=121-	=121-	=121-	=121-	=121-	=121-	=121-
*	*	*	*	*	*	*	*	*	*	*	*	*	*custos:dd	*
1.A/	gau-	1.a\	glo-	1.cc#X\	gau-	1.ee\	gau-	00.r	.	1.ryy	00.r	.	00.r	.
2A/	-di-	2a\	-ri-	2cc#\	-di-	2ee\	-di-	.	.	1.ryy	.	.	.	.
1A/	-a	1a\	-a	1cc#\	-a	1ee\	-a	.	.	.	.	.	.	.
=122-	=122-	=122-	=122-	=122-	=122-	=122-	=122-	=122-	=122-	=122-	=122-	=122-	=122-	=122-
1B-X/	ae-	1g\	ae-	1dd\	ae-	1dd\	ae-	.	.	1.ryy	.	.	.	.
0A/	-ter-	0e\	-ter-	0a\	-ter-	(1dd\	-ter-	.	.	.	.	.	.	.
.	.	.	.	.	.	.	.	.	.	1.ryy	.	.	.	.
*	*	*	*	*	*	*custos:dd	*	*	*	*	*	*	*	*
!	!	!	!	!	!	!LO:TX:b:t=P:problem=# below	!	!	!	!	!	!	!	!
.	.	.	.	.	.	1cc#X\)	.	.	.	.	.	.	.	.
=123-	=123-	=123-	=123-	=123-	=123-	=123-	=123-	=123-	=123-	=123-	=123-	=123-	=123-	=123-
*M2/1	*	*M2/1	*	*M2/1	*	*M2/1	*	*M2/1	*	*M2/1	*M2/1	*	*M2/1	*
*met(c|)	*	*met(c|)	*	*met(c|)	*	*met(c|)	*	*met(c|)	*	*met(c|)	*met(c|)	*	*met(c|)	*
!	!	!	!	!	!	!LO:LB:g=original	!	!	!	!	!	!	!LO:LB:g=original	!
1d\	-na	1f#X\	-na	1a\	-na	1dd\	-na	2.d\	me-	1ryy	2.a\	me-	2.dd\	me-
.	.	.	.	.	.	.	.	4d\	-re	.	4a\	-re	4dd\	-re
0r	.	0r	.	0r	.	0r	.	2d\	a-	1ryy	2a\	a-	2dd\	a-
.	.	.	.	.	.	.	.	4B-X/	-mur	.	4b-X\	-mur	4dd\	-mur
*	*	*	*	*	*	*	*	*	*	*	*custos:dd	*	*	*
.	.	.	.	.	.	.	.	4B-/	poſ-	.	4b-\	poſ-	4dd\	poſ-
=124-	=124-	=124-	=124-	=124-	=124-	=124-	=124-	=124-	=124-	=124-	=124-	=124-	=124-	=124-
!	!	!	!	!	!	!	!	!	!	!	!LO:LB:g=original	!	!	!
.	.	.	.	.	.	.	.	2G/	-si-	1ryy	2dd\	-si-	2.ee\	-si-
.	.	.	.	.	.	.	.	2A/	-de-	.	2cc#X\	-de-	.	.
.	.	.	.	.	.	.	.	.	.	.	.	.	4ee\	-de-
2.d\	me-	2.f#X\	me-	2.a\	me-	2.dd\	me-	1d\	-re	1ryy	1dd\	-re	1dd\	-re
*custos:g	*	*	*	*	*	*	*	*	*	*	*	*	*	*
4d\	-re	4f#\	-re	4a\	-re	4dd\	-re	.	.	.	.	.	.	.
=125-	=125-	=125-	=125-	=125-	=125-	=125-	=125-	=125-	=125-	=125-	=125-	=125-	=125-	=125-
!LO:LB:g=original	!	!	!	!	!	!	!	!	!	!	!	!	!	!
2g\	a-	2g\	a-	2a\	a-	2dd\	a-	0r	.	1ryy	0r	.	0r	.
4d\	-mur	4a\	-mur	4dd\	-mur	4ff\	-mur	.	.	.	.	.	.	.
*	*	*	*	*custos:b	*	*	*	*	*	*	*	*	*	*
4d\	poſ-	4a\	poſ-	4dd\	poſ-	4ff\	poſ-	.	.	.	.	.	.	.
!	!	!	!	!LO:LB:g=original	!	!	!	!	!	!	!	!	!	!
2.e\	-si-	2.g#X\	-si-	2.b\	-si-	2.ee\	-si-	.	.	1ryy	.	.	.	.
*	*	*custos:a	*	*	*	*	*	*	*	*	*	*	*	*
4e\	-de-	4g#\	-de-	4b\	-de-	4ee\	-de-	.	.	.	.	.	.	.
=126-	=126-	=126-	=126-	=126-	=126-	=126-	=126-	=126-	=126-	=126-	=126-	=126-	=126-	=126-
*	*	*	*	*	*	*	*	*	*	*	*	*ij	*	*
!	!	!LO:LB:g=original	!	!	!	!	!	!	!	!	!	!	!	!
1A/	-re	1a\	-re	1cc#X\	-re	1ee\	-re	2.A/	me-	1ryy	2.cc#X\	me-	2.ee\	me-
.	.	.	.	.	.	.	.	4A/	-re	.	4cc#\	-re	4ee\	-re
!	!	!	!	!	!	!	!	!LO:LB:g=original	!	!	!	!	!	!
2r	.	2r	.	2r	.	2r	.	2d\	a-	1ryy	2dd\	a-	2ff\	a-
*	*ij	*	*	*	*	*	*	*	*	*	*	*	*	*
4a\	me-	4a\	me-	4a\	me-	4ee\	me-	4A/	-mur	.	4cc#X\	-mur	4ee\	-mur
4a\	-re	4a\	-re	4a\	-re	4ee\	-re	4A/	poſ-	.	4cc#\	poſ-	4ee\	poſ-
=127-	=127-	=127-	=127-	=127-	=127-	=127-	=127-	=127-	=127-	=127-	=127-	=127-	=127-	=127-
2d\	a-	2fny\	a-	2a\	a-	2ff\	a-	4.d\	-si-	1ryy	4.a\	-si-	4.dd\	-si-
.	.	.	.	.	.	.	.	8d\	-de-	.	8a\	-de-	8dd\	-de-
4a\	-mur	4a\	-mur	4a\	-mur	4ee\	-mur	2A/	-re	.	2a\	-re	2cc#X,<\	-re
*	*	*	*	*	*	*	*	*	*	*	*	*Xij	*	*
4a\	poſ-	4a\	poſ-	4a\	poſ-	4ee\	poſ-	.	.	.	.	.	.	.
4.d\	-si-	4.a\	-si-	4.a\	-si-	4.dd\	-si-	4d\	me-	1ryy	4a\	me-	4dd\	me-
.	.	.	.	.	.	.	.	4d\	-re	.	4a\	-re	4dd\	-re
8d\	-de-	8a\	-de-	8a\	-de-	8dd\	-de-	.	.	.	.	.	.	.
2A/	-re	2a\	-re	2a\	-re	2cc#X\	-re	2a\	a-	.	2a\	a-	2ee\	a-
=128-	=128-	=128-	=128-	=128-	=128-	=128-	=128-	=128-	=128-	=128-	=128-	=128-	=128-	=128-
2r	.	2r	.	2r	.	2r	.	4d\	-mur	1ryy	4a\	-mur	4ff\	-mur
*	*	*	*	*	*	*	*	*	*	*	*	*	*custos:dd	*
.	.	.	.	.	.	.	.	4c#X/	poſ-	.	4a\	poſ-	4ee\	poſ-
*	*Xij	*	*ij	*	*	*	*	*	*	*	*	*	*	*
!	!	!	!	!	!	!	!	!	!	!	!	!	!LO:LB:g=original	!
4d\	me-	4a\	me-	4a\	me-	4dd\	me-	4.d\	-si-	.	4.a\	-si-	4.dd\	-si-
*	*	*	*	*	*	*custos:ee	*	*	*	*	*	*	*	*
4d\	-re	4a\	-re	4a\	-re	4dd\	-re	.	.	.	.	.	.	.
.	.	.	.	.	.	.	.	8d\	-de-	.	8a\	-de-	8dd\	-de-
!	!	!	!	!	!	!LO:LB:g=original	!	!	!	!	!	!	!	!
2a\	a-	2a\	a-	2a\	a-	2ee\	a-	2A,</	-re	1ryy	2a\	-re	2cc,<\	-re
4a\	-mur	4a\	-mur	4a\	-mur	4ee\	-mur	4A/	me-	.	4a\	me-	4ee\	me-
4a\	poſ-	4e/	poſ-	4a\	poſ-	4ee\	poſ-	4A/	-re	.	4a\	-re	4ee\	-re
=129-	=129-	=129-	=129-	=129-	=129-	=129-	=129-	=129-	=129-	=129-	=129-	=129-	=129-	=129-
2.d\	-si-	4.f#X\	-si-	2.a\	-si-	2.dd\	-si-	1d\	a-	1ryy	1a\	a-	1ff#X\	a-
.	.	8f#\	-de-	.	.	.	.	.	.	.	.	.	.	.
.	.	2f#\	-re	.	.	.	.	.	.	.	.	.	.	.
*	*	*	*Xij	*	*	*	*	*	*	*	*	*	*	*
4d\	-de-	.	.	4a\	-de-	4dd\	-de-	.	.	.	.	.	.	.
*custos:a	*	*	*	*	*	*	*	*	*	*	*custos:b	*	*	*
1a\	-re	2r	.	1g\	-re	2dd\	-re	2G/	mur	1ryy	2b-X\	mur	1.gg\	mur
!	!	!	!	!	!	!	!	!	!	!	!LO:LB:g=original	!	!	!
.	.	4d/	me-	.	.	2ee\	poſ-	2G/	poſ-	.	2b-X\	poſ-	.	.
.	.	4d/	-re	.	.	.	.	.	.	.	.	.	.	.
=130-	=130-	=130-	=130-	=130-	=130-	=130-	=130-	=130-	=130-	=130-	=130-	=130-	=130-	=130-
!LO:LB:g=original	!	!	!	!	!	!	!	!	!	!	!	!	!	!
2r	.	2a\	a-	2r	.	2cc#X\	-si-	1.A/	-si-	1ryy	1.a\	-si-	.	.
2a\	poſ-	4f\	-mur	2dd\	poſ-	1dd\	.	.	.	.	.	.	2ff\	poſ-
.	.	4f\	poſ-	.	.	.	.	.	.	.	.	.	.	.
!	!	!LO:LB:g=original	!	!	!	!	!	!	!	!	!	!	!	!
2.a\	si-	2.a\	si-	2.a\	si-	.	.	.	.	1ryy	.	.	2.ee\	-si-
.	.	.	.	.	.	2cc#X\	-de-	2A/	-de-	.	2a\	-de-	.	.
4a\	-de-	4a\	-de-	4a\	-de-	.	.	.	.	.	.	.	4ee\	-de-
=131-	=131-	=131-	=131-	=131-	=131-	=131-	=131-	=131-	=131-	=131-	=131-	=131-	=131-	=131-
0d\;	-re.	0f#X\;	-re.	0a\;	-re.	0dd\;	-re.	0d\;	-re.	1ryy	0a\;	-re.	0dd\	-re.
.	.	.	.	.	.	.	.	.	.	1ryy	.	.	.	.
==	==	==	==	==	==	==	==	==	==	==	==	==	==	==
*-	*-	*-	*-	*-	*-	*-	*-	*-	*-	*-	*-	*-	*-	*-
!!!system-decoration: [(s1,s2,s3,s4)][(s5,s6,s7,s8)]
!!!RDF**kern: > = above
!!!RDF**kern: < = below
!!!ENC: Filip Voros
!!!END: 2021-10-12
!!!EED: Andrzej Borzym
!!!EEV: 2021-10-15
